assets/luts/golden_hour.cube
TITLE "golden_hour"
LUT_3D_SIZE 5
0.052617 0.037194 0.011489
0.291829 0.034653 0.007667
0.562935 0.031773 0.003335
0.834041 0.028892 0.000000
1.000000 0.026351 0.000000
0.046653 0.269629 0.000000
0.285864 0.267088 0.000000
0.556971 0.264207 0.000000
0.828077 0.261327 0.000000
1.000000 0.258785 0.000000
0.039893 0.533055 0.000000
0.279104 0.530513 0.000000
0.550211 0.527633 0.000000
0.821317 0.524753 0.000000
1.000000 0.522211 0.000000
0.033133 0.796481 0.000000
0.272345 0.793939 0.000000
0.543451 0.791059 0.000000
0.814557 0.788178 0.000000
1.000000 0.785637 0.000000
0.027169 1.000000 0.000000
0.266380 1.000000 0.000000
0.537486 1.000000 0.000000
0.808593 1.000000 0.000000
1.000000 1.000000 0.000000
0.052015 0.036331 0.251176
0.291227 0.033790 0.247353
0.562333 0.030909 0.243021
0.833439 0.028029 0.238689
1.000000 0.025488 0.234867
0.046051 0.268766 0.238317
0.285262 0.266224 0.234495
0.556368 0.263344 0.230163
0.827475 0.260464 0.225831
1.000000 0.257922 0.222008
0.039291 0.532192 0.223744
0.278502 0.529650 0.219922
0.549609 0.526770 0.215590
0.820715 0.523889 0.211258
1.000000 0.521348 0.207435
0.032531 0.795618 0.209171
0.271743 0.793076 0.205349
0.542849 0.790196 0.201017
0.813955 0.787315 0.196685
1.000000 0.784774 0.192862
0.026567 1.000000 0.196312
0.265778 1.000000 0.192490
0.536884 1.000000 0.188158
0.807990 1.000000 0.183826
1.000000 1.000000 0.180004
0.051333 0.035353 0.522820
0.290544 0.032812 0.518998
0.561650 0.029931 0.514666
0.832757 0.027051 0.510334
1.000000 0.024509 0.506512
0.045368 0.267788 0.509962
0.284580 0.265246 0.506139
0.555686 0.262366 0.501807
0.826792 0.259485 0.497475
1.000000 0.256944 0.493653
0.038609 0.531214 0.495389
0.277820 0.528672 0.491566
0.548926 0.525792 0.487234
0.820032 0.522911 0.482902
1.000000 0.520370 0.479080
0.031849 0.794639 0.480815
0.271060 0.792098 0.476993
0.542166 0.789218 0.472661
0.813273 0.786337 0.468329
1.000000 0.783796 0.464507
0.025884 1.000000 0.467957
0.265096 1.000000 0.464134
0.536202 1.000000 0.459802
0.807308 1.000000 0.455470
1.000000 1.000000 0.451648
0.050651 0.034375 0.794465
0.289862 0.031833 0.790642
0.560968 0.028953 0.786310
0.832074 0.026073 0.781978
1.000000 0.023531 0.778156
0.044686 0.266810 0.781606
0.283897 0.264268 0.777784
0.555004 0.261388 0.773452
0.826110 0.258507 0.769120
1.000000 0.255966 0.765297
0.037926 0.530235 0.767033
0.277138 0.527694 0.763211
0.548244 0.524813 0.758879
0.819350 0.521933 0.754547
1.000000 0.519392 0.750724
0.031166 0.793661 0.752460
0.270378 0.791120 0.748638
0.541484 0.788239 0.744306
0.812590 0.785359 0.739974
1.000000 0.782817 0.736151
0.025202 1.000000 0.739601
0.264413 1.000000 0.735779
0.535519 1.000000 0.731447
0.806626 1.000000 0.727115
1.000000 1.000000 0.723293
0.050048 0.033512 1.000000
0.289260 0.030970 1.000000
0.560366 0.028090 1.000000
0.831472 0.025210 1.000000
1.000000 0.022668 1.000000
0.044084 0.265946 1.000000
0.283295 0.263405 1.000000
0.554401 0.260525 1.000000
0.825508 0.257644 1.000000
1.000000 0.255103 1.000000
0.037324 0.529372 1.000000
0.276535 0.526831 1.000000
0.547642 0.523950 0.998565
0.818748 0.521070 0.994233
1.000000 0.518528 0.990411
0.030564 0.792798 0.992146
0.269776 0.790257 0.988324
0.540882 0.787376 0.983992
0.811988 0.784496 0.979660
1.000000 0.781954 0.975838
0.024600 1.000000 0.979288
0.263811 1.000000 0.975465
0.534917 1.000000 0.971133
0.806024 1.000000 0.966801
1.000000 1.000000 0.962979
