assets/luts/golden_hour.cube
TITLE "golden_hour"
LUT_3D_SIZE 33
0.052617 0.037194 0.011489
0.080775 0.036895 0.011040
0.109430 0.036591 0.010582
0.138584 0.036281 0.010116
0.168236 0.035966 0.009642
0.198387 0.035646 0.009160
0.229036 0.035320 0.008670
0.260183 0.034989 0.008173
0.291829 0.034653 0.007667
0.323973 0.034311 0.007153
0.356615 0.033965 0.006632
0.389756 0.033613 0.006102
0.423395 0.033255 0.005565
0.457533 0.032892 0.005019
0.492168 0.032524 0.004466
0.527303 0.032151 0.003904
0.562935 0.031773 0.003335
0.598568 0.031394 0.002766
0.633702 0.031021 0.002204
0.668338 0.030653 0.001651
0.702475 0.030290 0.001105
0.736114 0.029933 0.000568
0.769255 0.029581 0.000038
0.801897 0.029234 0.000000
0.834041 0.028892 0.000000
0.865687 0.028556 0.000000
0.896834 0.028225 0.000000
0.927483 0.027899 0.000000
0.957634 0.027579 0.000000
0.987286 0.027264 0.000000
1.000000 0.026954 0.000000
1.000000 0.026650 0.000000
1.000000 0.026351 0.000000
0.051915 0.064554 0.009976
0.080073 0.064255 0.009526
0.108728 0.063950 0.009068
0.137882 0.063641 0.008602
0.167534 0.063326 0.008128
0.197685 0.063005 0.007647
0.228334 0.062680 0.007157
0.259481 0.062349 0.006659
0.291127 0.062012 0.006154
0.323271 0.061671 0.005640
0.355913 0.061324 0.005118
0.389054 0.060972 0.004589
0.422693 0.060615 0.004051
0.456830 0.060252 0.003506
0.491466 0.059884 0.002952
0.526600 0.059511 0.002391
0.562233 0.059132 0.001822
0.597865 0.058753 0.001252
0.633000 0.058380 0.000691
0.667635 0.058012 0.000137
0.701773 0.057649 0.000000
0.735412 0.057292 0.000000
0.768553 0.056940 0.000000
0.801195 0.056593 0.000000
0.833339 0.056252 0.000000
0.864985 0.055915 0.000000
0.896132 0.055585 0.000000
0.926781 0.055259 0.000000
0.956932 0.054939 0.000000
0.986584 0.054624 0.000000
1.000000 0.054314 0.000000
1.000000 0.054009 0.000000
1.000000 0.053710 0.000000
0.051201 0.092398 0.008436
0.079358 0.092099 0.007986
0.108014 0.091794 0.007528
0.137167 0.091484 0.007062
0.166820 0.091169 0.006588
0.196970 0.090849 0.006106
0.227619 0.090523 0.005617
0.258767 0.090192 0.005119
0.290412 0.089856 0.004613
0.322556 0.089515 0.004100
0.355199 0.089168 0.003578
0.388339 0.088816 0.003048
0.421978 0.088458 0.002511
0.456116 0.088096 0.001965
0.490752 0.087728 0.001412
0.525886 0.087354 0.000851
0.561518 0.086976 0.000281
0.597151 0.086597 0.000000
0.632285 0.086224 0.000000
0.666921 0.085856 0.000000
0.701058 0.085493 0.000000
0.734698 0.085136 0.000000
0.767838 0.084784 0.000000
0.800481 0.084437 0.000000
0.832625 0.084095 0.000000
0.864270 0.083759 0.000000
0.895418 0.083428 0.000000
0.926067 0.083103 0.000000
0.956217 0.082782 0.000000
0.985869 0.082467 0.000000
1.000000 0.082157 0.000000
1.000000 0.081853 0.000000
1.000000 0.081554 0.000000
0.050474 0.120726 0.006868
0.078631 0.120426 0.006418
0.107287 0.120122 0.005961
0.136441 0.119812 0.005495
0.166093 0.119497 0.005021
0.196243 0.119177 0.004539
0.226892 0.118851 0.004049
0.258040 0.118520 0.003552
0.289685 0.118184 0.003046
0.321829 0.117843 0.002532
0.354472 0.117496 0.002011
0.387612 0.117144 0.001481
0.421252 0.116786 0.000944
0.455389 0.116424 0.000398
0.490025 0.116056 0.000000
0.525159 0.115682 0.000000
0.560792 0.115304 0.000000
0.596424 0.114925 0.000000
0.631558 0.114552 0.000000
0.666194 0.114184 0.000000
0.700331 0.113821 0.000000
0.733971 0.113464 0.000000
0.767111 0.113112 0.000000
0.799754 0.112765 0.000000
0.831898 0.112423 0.000000
0.863543 0.112087 0.000000
0.894691 0.111756 0.000000
0.925340 0.111431 0.000000
0.955490 0.111110 0.000000
0.985143 0.110795 0.000000
1.000000 0.110485 0.000000
1.000000 0.110181 0.000000
1.000000 0.109882 0.000000
0.049735 0.149538 0.005274
0.077892 0.149239 0.004825
0.106547 0.148934 0.004367
0.135701 0.148624 0.003901
0.165353 0.148309 0.003427
0.195504 0.147989 0.002945
0.226153 0.147663 0.002455
0.257300 0.147333 0.001958
0.288946 0.146996 0.001452
0.321090 0.146655 0.000938
0.353732 0.146308 0.000417
0.386873 0.145956 0.000000
0.420512 0.145598 0.000000
0.454650 0.145236 0.000000
0.489285 0.144868 0.000000
0.524420 0.144495 0.000000
0.560052 0.144116 0.000000
0.595685 0.143737 0.000000
0.630819 0.143364 0.000000
0.665455 0.142996 0.000000
0.699592 0.142633 0.000000
0.733231 0.142276 0.000000
0.766372 0.141924 0.000000
0.799014 0.141577 0.000000
0.831158 0.141236 0.000000
0.862804 0.140899 0.000000
0.893951 0.140568 0.000000
0.924600 0.140243 0.000000
0.954751 0.139922 0.000000
0.984403 0.139607 0.000000
1.000000 0.139298 0.000000
1.000000 0.138993 0.000000
1.000000 0.138694 0.000000
0.048983 0.178834 0.003654
0.077140 0.178535 0.003204
0.105796 0.178231 0.002746
0.134949 0.177921 0.002280
0.164602 0.177606 0.001806
0.194752 0.177286 0.001324
0.225401 0.176960 0.000835
0.256549 0.176629 0.000337
0.288194 0.176293 0.000000
0.320338 0.175951 0.000000
0.352981 0.175604 0.000000
0.386121 0.175252 0.000000
0.419760 0.174895 0.000000
0.453898 0.174532 0.000000
0.488534 0.174164 0.000000
0.523668 0.173791 0.000000
0.559300 0.173412 0.000000
0.594933 0.173034 0.000000
0.630067 0.172661 0.000000
0.664703 0.172293 0.000000
0.698840 0.171930 0.000000
0.732479 0.171572 0.000000
0.765620 0.171220 0.000000
0.798263 0.170874 0.000000
0.830407 0.170532 0.000000
0.862052 0.170196 0.000000
0.893200 0.169865 0.000000
0.923849 0.169539 0.000000
0.953999 0.169219 0.000000
0.983651 0.168904 0.000000
1.000000 0.168594 0.000000
1.000000 0.168290 0.000000
1.000000 0.167990 0.000000
0.048219 0.208615 0.002006
0.076376 0.208316 0.001556
0.105031 0.208011 0.001098
0.134185 0.207702 0.000633
0.163837 0.207387 0.000159
0.193988 0.207066 0.000000
0.224637 0.206741 0.000000
0.255784 0.206410 0.000000
0.287430 0.206073 0.000000
0.319574 0.205732 0.000000
0.352216 0.205385 0.000000
0.385357 0.205033 0.000000
0.418996 0.204676 0.000000
0.453134 0.204313 0.000000
0.487769 0.203945 0.000000
0.522904 0.203572 0.000000
0.558536 0.203193 0.000000
0.594169 0.202814 0.000000
0.629303 0.202441 0.000000
0.663939 0.202073 0.000000
0.698076 0.201711 0.000000
0.731715 0.201353 0.000000
0.764856 0.201001 0.000000
0.797498 0.200654 0.000000
0.829642 0.200313 0.000000
0.861288 0.199976 0.000000
0.892435 0.199646 0.000000
0.923084 0.199320 0.000000
0.953235 0.199000 0.000000
0.982887 0.198685 0.000000
1.000000 0.198375 0.000000
1.000000 0.198070 0.000000
1.000000 0.197771 0.000000
0.047442 0.238880 0.000332
0.075599 0.238581 0.000000
0.104255 0.238276 0.000000
0.133409 0.237967 0.000000
0.163061 0.237651 0.000000
0.193211 0.237331 0.000000
0.223860 0.237006 0.000000
0.255008 0.236675 0.000000
0.286653 0.236338 0.000000
0.318797 0.235997 0.000000
0.351440 0.235650 0.000000
0.384580 0.235298 0.000000
0.418220 0.234941 0.000000
0.452357 0.234578 0.000000
0.486993 0.234210 0.000000
0.522127 0.233837 0.000000
0.557760 0.233458 0.000000
0.593392 0.233079 0.000000
0.628526 0.232706 0.000000
0.663162 0.232338 0.000000
0.697300 0.231975 0.000000
0.730939 0.231618 0.000000
0.764079 0.231266 0.000000
0.796722 0.230919 0.000000
0.828866 0.230578 0.000000
0.860511 0.230241 0.000000
0.891659 0.229910 0.000000
0.922308 0.229585 0.000000
0.952458 0.229264 0.000000
0.982111 0.228949 0.000000
1.000000 0.228640 0.000000
1.000000 0.228335 0.000000
1.000000 0.228036 0.000000
0.046653 0.269629 0.000000
0.074810 0.269330 0.000000
0.103466 0.269025 0.000000
0.132620 0.268716 0.000000
0.162272 0.268401 0.000000
0.192422 0.268080 0.000000
0.223071 0.267755 0.000000
0.254219 0.267424 0.000000
0.285864 0.267088 0.000000
0.318008 0.266746 0.000000
0.350651 0.266399 0.000000
0.383791 0.266047 0.000000
0.417431 0.265690 0.000000
0.451568 0.265327 0.000000
0.486204 0.264959 0.000000
0.521338 0.264586 0.000000
0.556971 0.264207 0.000000
0.592603 0.263829 0.000000
0.627737 0.263455 0.000000
0.662373 0.263087 0.000000
0.696510 0.262725 0.000000
0.730150 0.262367 0.000000
0.763290 0.262015 0.000000
0.795933 0.261668 0.000000
0.828077 0.261327 0.000000
0.859722 0.260991 0.000000
0.890870 0.260660 0.000000
0.921519 0.260334 0.000000
0.951669 0.260014 0.000000
0.981321 0.259699 0.000000
1.000000 0.259389 0.000000
1.000000 0.259084 0.000000
1.000000 0.258785 0.000000
0.045851 0.300862 0.000000
0.074009 0.300563 0.000000
0.102664 0.300259 0.000000
0.131818 0.299949 0.000000
0.161470 0.299634 0.000000
0.191621 0.299314 0.000000
0.222270 0.298988 0.000000
0.253417 0.298657 0.000000
0.285063 0.298321 0.000000
0.317207 0.297979 0.000000
0.349849 0.297633 0.000000
0.382990 0.297280 0.000000
0.416629 0.296923 0.000000
0.450767 0.296560 0.000000
0.485402 0.296192 0.000000
0.520536 0.295819 0.000000
0.556169 0.295441 0.000000
0.591802 0.295062 0.000000
0.626936 0.294689 0.000000
0.661572 0.294321 0.000000
0.695709 0.293958 0.000000
0.729348 0.293601 0.000000
0.762489 0.293248 0.000000
0.795131 0.292902 0.000000
0.827275 0.292560 0.000000
0.858921 0.292224 0.000000
0.890068 0.291893 0.000000
0.920717 0.291567 0.000000
0.950868 0.291247 0.000000
0.980520 0.290932 0.000000
1.000000 0.290622 0.000000
1.000000 0.290318 0.000000
1.000000 0.290019 0.000000
0.045038 0.332580 0.000000
0.073195 0.332281 0.000000
0.101850 0.331976 0.000000
0.131004 0.331667 0.000000
0.160656 0.331352 0.000000
0.190807 0.331031 0.000000
0.221456 0.330706 0.000000
0.252603 0.330375 0.000000
0.284249 0.330039 0.000000
0.316393 0.329697 0.000000
0.349035 0.329350 0.000000
0.382176 0.328998 0.000000
0.415815 0.328641 0.000000
0.449953 0.328278 0.000000
0.484588 0.327910 0.000000
0.519723 0.327537 0.000000
0.555355 0.327158 0.000000
0.590988 0.326780 0.000000
0.626122 0.326406 0.000000
0.660758 0.326038 0.000000
0.694895 0.325676 0.000000
0.728534 0.325318 0.000000
0.761675 0.324966 0.000000
0.794317 0.324619 0.000000
0.826461 0.324278 0.000000
0.858107 0.323942 0.000000
0.889254 0.323611 0.000000
0.919903 0.323285 0.000000
0.950054 0.322965 0.000000
0.979706 0.322650 0.000000
1.000000 0.322340 0.000000
1.000000 0.322035 0.000000
1.000000 0.321736 0.000000
0.044211 0.364782 0.000000
0.072368 0.364483 0.000000
0.101024 0.364178 0.000000
0.130178 0.363869 0.000000
0.159830 0.363554 0.000000
0.189981 0.363233 0.000000
0.220630 0.362908 0.000000
0.251777 0.362577 0.000000
0.283423 0.362240 0.000000
0.315567 0.361899 0.000000
0.348209 0.361552 0.000000
0.381350 0.361200 0.000000
0.414989 0.360843 0.000000
0.449126 0.360480 0.000000
0.483762 0.360112 0.000000
0.518896 0.359739 0.000000
0.554529 0.359360 0.000000
0.590161 0.358981 0.000000
0.625295 0.358608 0.000000
0.659931 0.358240 0.000000
0.694069 0.357877 0.000000
0.727708 0.357520 0.000000
0.760849 0.357168 0.000000
0.793491 0.356821 0.000000
0.825635 0.356480 0.000000
0.857281 0.356143 0.000000
0.888428 0.355813 0.000000
0.919077 0.355487 0.000000
0.949228 0.355167 0.000000
0.978880 0.354851 0.000000
1.000000 0.354542 0.000000
1.000000 0.354237 0.000000
1.000000 0.353938 0.000000
0.043372 0.397468 0.000000
0.071530 0.397169 0.000000
0.100185 0.396864 0.000000
0.129339 0.396555 0.000000
0.158991 0.396240 0.000000
0.189142 0.395919 0.000000
0.219791 0.395594 0.000000
0.250938 0.395263 0.000000
0.282584 0.394927 0.000000
0.314728 0.394585 0.000000
0.347370 0.394238 0.000000
0.380511 0.393886 0.000000
0.414150 0.393529 0.000000
0.448288 0.393166 0.000000
0.482923 0.392798 0.000000
0.518057 0.392425 0.000000
0.553690 0.392046 0.000000
0.589323 0.391668 0.000000
0.624457 0.391294 0.000000
0.659093 0.390926 0.000000
0.693230 0.390564 0.000000
0.726869 0.390206 0.000000
0.760010 0.389854 0.000000
0.792652 0.389507 0.000000
0.824796 0.389166 0.000000
0.856442 0.388830 0.000000
0.887589 0.388499 0.000000
0.918238 0.388173 0.000000
0.948389 0.387853 0.000000
0.978041 0.387538 0.000000
1.000000 0.387228 0.000000
1.000000 0.386923 0.000000
1.000000 0.386624 0.000000
0.042521 0.430638 0.000000
0.070678 0.430339 0.000000
0.099334 0.430035 0.000000
0.128488 0.429725 0.000000
0.158140 0.429410 0.000000
0.188291 0.429090 0.000000
0.218940 0.428764 0.000000
0.250087 0.428433 0.000000
0.281733 0.428097 0.000000
0.313877 0.427755 0.000000
0.346519 0.427409 0.000000
0.379660 0.427056 0.000000
0.413299 0.426699 0.000000
0.447436 0.426336 0.000000
0.482072 0.425968 0.000000
0.517206 0.425595 0.000000
0.552839 0.425216 0.000000
0.588471 0.424838 0.000000
0.623606 0.424465 0.000000
0.658241 0.424097 0.000000
0.692379 0.423734 0.000000
0.726018 0.423377 0.000000
0.759159 0.423024 0.000000
0.791801 0.422678 0.000000
0.823945 0.422336 0.000000
0.855591 0.422000 0.000000
0.886738 0.421669 0.000000
0.917387 0.421343 0.000000
0.947538 0.421023 0.000000
0.977190 0.420708 0.000000
1.000000 0.420398 0.000000
1.000000 0.420094 0.000000
1.000000 0.419795 0.000000
0.041658 0.464293 0.000000
0.069815 0.463994 0.000000
0.098470 0.463689 0.000000
0.127624 0.463380 0.000000
0.157276 0.463065 0.000000
0.187427 0.462744 0.000000
0.218076 0.462419 0.000000
0.249223 0.462088 0.000000
0.280869 0.461751 0.000000
0.313013 0.461410 0.000000
0.345655 0.461063 0.000000
0.378796 0.460711 0.000000
0.412435 0.460354 0.000000
0.446573 0.459991 0.000000
0.481209 0.459623 0.000000
0.516343 0.459250 0.000000
0.551975 0.458871 0.000000
0.587608 0.458493 0.000000
0.622742 0.458119 0.000000
0.657378 0.457751 0.000000
0.691515 0.457389 0.000000
0.725154 0.457031 0.000000
0.758295 0.456679 0.000000
0.790937 0.456332 0.000000
0.823081 0.455991 0.000000
0.854727 0.455654 0.000000
0.885874 0.455324 0.000000
0.916523 0.454998 0.000000
0.946674 0.454678 0.000000
0.976326 0.454363 0.000000
1.000000 0.454053 0.000000
1.000000 0.453748 0.000000
1.000000 0.453449 0.000000
0.040782 0.498432 0.000000
0.068939 0.498133 0.000000
0.097594 0.497828 0.000000
0.126748 0.497518 0.000000
0.156400 0.497203 0.000000
0.186551 0.496883 0.000000
0.217200 0.496557 0.000000
0.248347 0.496227 0.000000
0.279993 0.495890 0.000000
0.312137 0.495549 0.000000
0.344779 0.495202 0.000000
0.377920 0.494850 0.000000
0.411559 0.494492 0.000000
0.445697 0.494130 0.000000
0.480332 0.493762 0.000000
0.515467 0.493388 0.000000
0.551099 0.493010 0.000000
0.586732 0.492631 0.000000
0.621866 0.492258 0.000000
0.656502 0.491890 0.000000
0.690639 0.491527 0.000000
0.724278 0.491170 0.000000
0.757419 0.490818 0.000000
0.790061 0.490471 0.000000
0.822205 0.490130 0.000000
0.853851 0.489793 0.000000
0.884998 0.489462 0.000000
0.915647 0.489137 0.000000
0.945798 0.488816 0.000000
0.975450 0.488501 0.000000
1.000000 0.488192 0.000000
1.000000 0.487887 0.000000
1.000000 0.487588 0.000000
0.039893 0.533055 0.000000
0.068050 0.532756 0.000000
0.096706 0.532451 0.000000
0.125860 0.532142 0.000000
0.155512 0.531826 0.000000
0.185663 0.531506 0.000000
0.216312 0.531181 0.000000
0.247459 0.530850 0.000000
0.279104 0.530513 0.000000
0.311249 0.530172 0.000000
0.343891 0.529825 0.000000
0.377032 0.529473 0.000000
0.410671 0.529116 0.000000
0.444808 0.528753 0.000000
0.479444 0.528385 0.000000
0.514578 0.528012 0.000000
0.550211 0.527633 0.000000
0.585843 0.527254 0.000000
0.620977 0.526881 0.000000
0.655613 0.526513 0.000000
0.689751 0.526150 0.000000
0.723390 0.525793 0.000000
0.756531 0.525441 0.000000
0.789173 0.525094 0.000000
0.821317 0.524753 0.000000
0.852963 0.524416 0.000000
0.884110 0.524085 0.000000
0.914759 0.523760 0.000000
0.944909 0.523439 0.000000
0.974562 0.523124 0.000000
1.000000 0.522815 0.000000
1.000000 0.522510 0.000000
1.000000 0.522211 0.000000
0.039005 0.567678 0.000000
0.067162 0.567379 0.000000
0.095817 0.567074 0.000000
0.124971 0.566765 0.000000
0.154623 0.566450 0.000000
0.184774 0.566129 0.000000
0.215423 0.565804 0.000000
0.246570 0.565473 0.000000
0.278216 0.565136 0.000000
0.310360 0.564795 0.000000
0.343002 0.564448 0.000000
0.376143 0.564096 0.000000
0.409782 0.563739 0.000000
0.443920 0.563376 0.000000
0.478556 0.563008 0.000000
0.513690 0.562635 0.000000
0.549322 0.562256 0.000000
0.584955 0.561877 0.000000
0.620089 0.561504 0.000000
0.654725 0.561136 0.000000
0.688862 0.560773 0.000000
0.722501 0.560416 0.000000
0.755642 0.560064 0.000000
0.788284 0.559717 0.000000
0.820428 0.559376 0.000000
0.852074 0.559039 0.000000
0.883221 0.558709 0.000000
0.913870 0.558383 0.000000
0.944021 0.558063 0.000000
0.973673 0.557748 0.000000
1.000000 0.557438 0.000000
1.000000 0.557133 0.000000
1.000000 0.556834 0.000000
0.038129 0.601817 0.000000
0.066286 0.601518 0.000000
0.094941 0.601213 0.000000
0.124095 0.600903 0.000000
0.153747 0.600588 0.000000
0.183898 0.600268 0.000000
0.214547 0.599942 0.000000
0.245694 0.599611 0.000000
0.277340 0.599275 0.000000
0.309484 0.598934 0.000000
0.342126 0.598587 0.000000
0.375267 0.598235 0.000000
0.408906 0.597877 0.000000
0.443044 0.597515 0.000000
0.477680 0.597147 0.000000
0.512814 0.596773 0.000000
0.548446 0.596395 0.000000
0.584079 0.596016 0.000000
0.619213 0.595643 0.000000
0.653849 0.595275 0.000000
0.687986 0.594912 0.000000
0.721625 0.594555 0.000000
0.754766 0.594203 0.000000
0.787408 0.593856 0.000000
0.819552 0.593514 0.000000
0.851198 0.593178 0.000000
0.882345 0.592847 0.000000
0.912994 0.592522 0.000000
0.943145 0.592201 0.000000
0.972797 0.591886 0.000000
1.000000 0.591577 0.000000
1.000000 0.591272 0.000000
1.000000 0.590973 0.000000
0.037265 0.635471 0.000000
0.065422 0.635172 0.000000
0.094078 0.634868 0.000000
0.123232 0.634558 0.000000
0.152884 0.634243 0.000000
0.183034 0.633923 0.000000
0.213683 0.633597 0.000000
0.244831 0.633266 0.000000
0.276476 0.632930 0.000000
0.308620 0.632588 0.000000
0.341263 0.632242 0.000000
0.374404 0.631889 0.000000
0.408043 0.631532 0.000000
0.442180 0.631169 0.000000
0.476816 0.630801 0.000000
0.511950 0.630428 0.000000
0.547583 0.630049 0.000000
0.583215 0.629671 0.000000
0.618349 0.629298 0.000000
0.652985 0.628930 0.000000
0.687123 0.628567 0.000000
0.720762 0.628210 0.000000
0.753902 0.627857 0.000000
0.786545 0.627511 0.000000
0.818689 0.627169 0.000000
0.850334 0.626833 0.000000
0.881482 0.626502 0.000000
0.912131 0.626176 0.000000
0.942281 0.625856 0.000000
0.971934 0.625541 0.000000
1.000000 0.625231 0.000000
1.000000 0.624927 0.000000
1.000000 0.624628 0.000000
0.036414 0.668642 0.000000
0.064571 0.668343 0.000000
0.093227 0.668038 0.000000
0.122380 0.667728 0.000000
0.152033 0.667413 0.000000
0.182183 0.667093 0.000000
0.212832 0.666767 0.000000
0.243980 0.666436 0.000000
0.275625 0.666100 0.000000
0.307769 0.665759 0.000000
0.340412 0.665412 0.000000
0.373552 0.665060 0.000000
0.407191 0.664702 0.000000
0.441329 0.664340 0.000000
0.475965 0.663972 0.000000
0.511099 0.663598 0.000000
0.546731 0.663220 0.000000
0.582364 0.662841 0.000000
0.617498 0.662468 0.000000
0.652134 0.662100 0.000000
0.686271 0.661737 0.000000
0.719910 0.661380 0.000000
0.753051 0.661028 0.000000
0.785694 0.660681 0.000000
0.817838 0.660339 0.000000
0.849483 0.660003 0.000000
0.880631 0.659672 0.000000
0.911280 0.659347 0.000000
0.941430 0.659026 0.000000
0.971082 0.658711 0.000000
1.000000 0.658402 0.000000
1.000000 0.658097 0.000000
1.000000 0.657798 0.000000
0.035575 0.701328 0.000000
0.063732 0.701029 0.000000
0.092388 0.700724 0.000000
0.121542 0.700414 0.000000
0.151194 0.700099 0.000000
0.181344 0.699779 0.000000
0.211993 0.699453 0.000000
0.243141 0.699123 0.000000
0.274786 0.698786 0.000000
0.306930 0.698445 0.000000
0.339573 0.698098 0.000000
0.372714 0.697746 0.000000
0.406353 0.697388 0.000000
0.440490 0.697026 0.000000
0.475126 0.696658 0.000000
0.510260 0.696285 0.000000
0.545893 0.695906 0.000000
0.581525 0.695527 0.000000
0.616659 0.695154 0.000000
0.651295 0.694786 0.000000
0.685433 0.694423 0.000000
0.719072 0.694066 0.000000
0.752212 0.693714 0.000000
0.784855 0.693367 0.000000
0.816999 0.693026 0.000000
0.848645 0.692689 0.000000
0.879792 0.692358 0.000000
0.910441 0.692033 0.000000
0.940591 0.691712 0.000000
0.970244 0.691397 0.000000
0.999398 0.691088 0.000000
1.000000 0.690783 0.000000
1.000000 0.690484 0.000000
0.034749 0.733530 0.000000
0.062906 0.733231 0.000000
0.091561 0.732926 0.000000
0.120715 0.732616 0.000000
0.150368 0.732301 0.000000
0.180518 0.731981 0.000000
0.211167 0.731655 0.000000
0.242314 0.731324 0.000000
0.273960 0.730988 0.000000
0.306104 0.730647 0.000000
0.338747 0.730300 0.000000
0.371887 0.729948 0.000000
0.405526 0.729590 0.000000
0.439664 0.729228 0.000000
0.474300 0.728860 0.000000
0.509434 0.728486 0.000000
0.545066 0.728108 0.000000
0.580699 0.727729 0.000000
0.615833 0.727356 0.000000
0.650469 0.726988 0.000000
0.684606 0.726625 0.000000
0.718245 0.726268 0.000000
0.751386 0.725916 0.000000
0.784028 0.725569 0.000000
0.816173 0.725227 0.000000
0.847818 0.724891 0.000000
0.878965 0.724560 0.000000
0.909614 0.724235 0.000000
0.939765 0.723914 0.000000
0.969417 0.723599 0.000000
0.998571 0.723290 0.000000
1.000000 0.722985 0.000000
1.000000 0.722686 0.000000
0.033935 0.765247 0.000000
0.062092 0.764948 0.000000
0.090748 0.764644 0.000000
0.119901 0.764334 0.000000
0.149554 0.764019 0.000000
0.179704 0.763699 0.000000
0.210353 0.763373 0.000000
0.241501 0.763042 0.000000
0.273146 0.762706 0.000000
0.305290 0.762364 0.000000
0.337933 0.762017 0.000000
0.371073 0.761665 0.000000
0.404712 0.761308 0.000000
0.438850 0.760945 0.000000
0.473486 0.760577 0.000000
0.508620 0.760204 0.000000
0.544252 0.759825 0.000000
0.579885 0.759447 0.000000
0.615019 0.759074 0.000000
0.649655 0.758706 0.000000
0.683792 0.758343 0.000000
0.717431 0.757985 0.000000
0.750572 0.757633 0.000000
0.783215 0.757287 0.000000
0.815359 0.756945 0.000000
0.847004 0.756609 0.000000
0.878152 0.756278 0.000000
0.908801 0.755952 0.000000
0.938951 0.755632 0.000000
0.968603 0.755317 0.000000
0.997757 0.755007 0.000000
1.000000 0.754703 0.000000
1.000000 0.754404 0.000000
0.033133 0.796481 0.000000
0.061291 0.796182 0.000000
0.089946 0.795877 0.000000
0.119100 0.795567 0.000000
0.148752 0.795252 0.000000
0.178903 0.794932 0.000000
0.209552 0.794606 0.000000
0.240699 0.794275 0.000000
0.272345 0.793939 0.000000
0.304489 0.793598 0.000000
0.337131 0.793251 0.000000
0.370272 0.792899 0.000000
0.403911 0.792541 0.000000
0.438048 0.792179 0.000000
0.472684 0.791811 0.000000
0.507818 0.791437 0.000000
0.543451 0.791059 0.000000
0.579083 0.790680 0.000000
0.614218 0.790307 0.000000
0.648853 0.789939 0.000000
0.682991 0.789576 0.000000
0.716630 0.789219 0.000000
0.749771 0.788867 0.000000
0.782413 0.788520 0.000000
0.814557 0.788178 0.000000
0.846203 0.787842 0.000000
0.877350 0.787511 0.000000
0.907999 0.787186 0.000000
0.938150 0.786865 0.000000
0.967802 0.786550 0.000000
0.996956 0.786241 0.000000
1.000000 0.785936 0.000000
1.000000 0.785637 0.000000
0.032344 0.827230 0.000000
0.060501 0.826931 0.000000
0.089157 0.826626 0.000000
0.118311 0.826317 0.000000
0.147963 0.826001 0.000000
0.178114 0.825681 0.000000
0.208763 0.825356 0.000000
0.239910 0.825025 0.000000
0.271556 0.824688 0.000000
0.303700 0.824347 0.000000
0.336342 0.824000 0.000000
0.369483 0.823648 0.000000
0.403122 0.823291 0.000000
0.437259 0.822928 0.000000
0.471895 0.822560 0.000000
0.507029 0.822187 0.000000
0.542662 0.821808 0.000000
0.578294 0.821429 0.000000
0.613429 0.821056 0.000000
0.648064 0.820688 0.000000
0.682202 0.820325 0.000000
0.715841 0.819968 0.000000
0.748982 0.819616 0.000000
0.781624 0.819269 0.000000
0.813768 0.818928 0.000000
0.845414 0.818591 0.000000
0.876561 0.818260 0.000000
0.907210 0.817935 0.000000
0.937361 0.817614 0.000000
0.967013 0.817299 0.000000
0.996167 0.816990 0.000000
1.000000 0.816685 0.000000
1.000000 0.816386 0.000000
0.031568 0.857495 0.000000
0.059725 0.857196 0.000000
0.088380 0.856891 0.000000
0.117534 0.856581 0.000000
0.147186 0.856266 0.000000
0.177337 0.855946 0.000000
0.207986 0.855620 0.000000
0.239133 0.855289 0.000000
0.270779 0.854953 0.000000
0.302923 0.854612 0.000000
0.335565 0.854265 0.000000
0.368706 0.853913 0.000000
0.402345 0.853555 0.000000
0.436483 0.853193 0.000000
0.471119 0.852825 0.000000
0.506253 0.852451 0.000000
0.541885 0.852073 0.000000
0.577518 0.851694 0.000000
0.612652 0.851321 0.000000
0.647288 0.850953 0.000000
0.681425 0.850590 0.000000
0.715064 0.850233 0.000000
0.748205 0.849881 0.000000
0.780847 0.849534 0.000000
0.812991 0.849193 0.000000
0.844637 0.848856 0.000000
0.875784 0.848525 0.000000
0.906433 0.848200 0.000000
0.936584 0.847879 0.000000
