assets/luts/golden_hour.cube
TITLE "golden_hour"
LUT_3D_SIZE 9
0.052617 0.037194 0.011489
0.168236 0.035966 0.009642
0.291829 0.034653 0.007667
0.423395 0.033255 0.005565
0.562935 0.031773 0.003335
0.702475 0.030290 0.001105
0.834041 0.028892 0.000000
0.957634 0.027579 0.000000
1.000000 0.026351 0.000000
0.049735 0.149538 0.005274
0.165353 0.148309 0.003427
0.288946 0.146996 0.001452
0.420512 0.145598 0.000000
0.560052 0.144116 0.000000
0.699592 0.142633 0.000000
0.831158 0.141236 0.000000
0.954751 0.139922 0.000000
1.000000 0.138694 0.000000
0.046653 0.269629 0.000000
0.162272 0.268401 0.000000
0.285864 0.267088 0.000000
0.417431 0.265690 0.000000
0.556971 0.264207 0.000000
0.696510 0.262725 0.000000
0.828077 0.261327 0.000000
0.951669 0.260014 0.000000
1.000000 0.258785 0.000000
0.043372 0.397468 0.000000
0.158991 0.396240 0.000000
0.282584 0.394927 0.000000
0.414150 0.393529 0.000000
0.553690 0.392046 0.000000
0.693230 0.390564 0.000000
0.824796 0.389166 0.000000
0.948389 0.387853 0.000000
1.000000 0.386624 0.000000
0.039893 0.533055 0.000000
0.155512 0.531826 0.000000
0.279104 0.530513 0.000000
0.410671 0.529116 0.000000
0.550211 0.527633 0.000000
0.689751 0.526150 0.000000
0.821317 0.524753 0.000000
0.944909 0.523439 0.000000
1.000000 0.522211 0.000000
0.036414 0.668642 0.000000
0.152033 0.667413 0.000000
0.275625 0.666100 0.000000
0.407191 0.664702 0.000000
0.546731 0.663220 0.000000
0.686271 0.661737 0.000000
0.817838 0.660339 0.000000
0.941430 0.659026 0.000000
1.000000 0.657798 0.000000
0.033133 0.796481 0.000000
0.148752 0.795252 0.000000
0.272345 0.793939 0.000000
0.403911 0.792541 0.000000
0.543451 0.791059 0.000000
0.682991 0.789576 0.000000
0.814557 0.788178 0.000000
0.938150 0.786865 0.000000
1.000000 0.785637 0.000000
0.030052 0.916572 0.000000
0.145670 0.915344 0.000000
0.269263 0.914030 0.000000
0.400829 0.912633 0.000000
0.540369 0.911150 0.000000
0.679909 0.909667 0.000000
0.811475 0.908270 0.000000
0.935068 0.906957 0.000000
1.000000 0.905728 0.000000
0.027169 1.000000 0.000000
0.142788 1.000000 0.000000
0.266380 1.000000 0.000000
0.397946 1.000000 0.000000
0.537486 1.000000 0.000000
0.677026 1.000000 0.000000
0.808593 1.000000 0.000000
0.932185 1.000000 0.000000
1.000000 1.000000 0.000000
0.052326 0.036777 0.127338
0.167945 0.035549 0.125490
0.291538 0.034236 0.123515
0.423104 0.032838 0.121413
0.562644 0.031355 0.119183
0.702184 0.029873 0.116954
0.833750 0.028475 0.114852
0.957343 0.027162 0.112877
1.000000 0.025934 0.111029
0.049444 0.149121 0.121123
0.165062 0.147892 0.119275
0.288655 0.146579 0.117300
0.420221 0.145181 0.115198
0.559761 0.143699 0.112968
0.699301 0.142216 0.110739
0.830867 0.140818 0.108637
0.954460 0.139505 0.106662
1.000000 0.138277 0.104814
0.046362 0.269212 0.114479
0.161981 0.267983 0.112632
0.285573 0.266670 0.110657
0.417140 0.265273 0.108555
0.556679 0.263790 0.106325
0.696219 0.262307 0.104095
0.827786 0.260910 0.101993
0.951378 0.259596 0.100018
1.000000 0.258368 0.098171
0.043081 0.397051 0.107407
0.158700 0.395822 0.105560
0.282293 0.394509 0.103585
0.413859 0.393112 0.101482
0.553399 0.391629 0.099253
0.692939 0.390146 0.097023
0.824505 0.388749 0.094921
0.948098 0.387435 0.092946
1.000000 0.386207 0.091098
0.039602 0.532638 0.099906
0.155221 0.531409 0.098059
0.278813 0.530096 0.096084
0.410380 0.528698 0.093982
0.549920 0.527216 0.091752
0.689460 0.525733 0.089522
0.821026 0.524335 0.087420
0.944618 0.523022 0.085445
1.000000 0.521794 0.083597
0.036123 0.668225 0.092405
0.151742 0.666996 0.090558
0.275334 0.665683 0.088583
0.406900 0.664285 0.086481
0.546440 0.662803 0.084251
0.685980 0.661320 0.082021
0.817547 0.659922 0.079919
0.941139 0.658609 0.077944
1.000000 0.657381 0.076097
0.032842 0.796064 0.085333
0.148461 0.794835 0.083486
0.272054 0.793522 0.081511
0.403620 0.792124 0.079408
0.543160 0.790642 0.077179
0.682700 0.789159 0.074949
0.814266 0.787761 0.072847
0.937859 0.786448 0.070872
1.000000 0.785220 0.069024
0.029761 0.916155 0.078689
0.145379 0.914926 0.076842
0.268972 0.913613 0.074867
0.400538 0.912215 0.072765
0.540078 0.910733 0.070535
0.679618 0.909250 0.068305
0.811184 0.907852 0.066203
0.934777 0.906539 0.064228
1.000000 0.905311 0.062381
0.026878 1.000000 0.072474
0.142497 1.000000 0.070627
0.266089 1.000000 0.068652
0.397655 1.000000 0.066550
0.537195 1.000000 0.064320
0.676735 1.000000 0.062090
0.808302 1.000000 0.059988
0.931894 1.000000 0.058013
1.000000 1.000000 0.056166
0.052015 0.036331 0.251176
0.167634 0.035103 0.249328
0.291227 0.033790 0.247353
0.422793 0.032392 0.245251
0.562333 0.030909 0.243021
0.701873 0.029427 0.240792
0.833439 0.028029 0.238689
0.957032 0.026716 0.236715
1.000000 0.025488 0.234867
0.049132 0.148675 0.244961
0.164751 0.147446 0.243113
0.288344 0.146133 0.241138
0.419910 0.144735 0.239036
0.559450 0.143253 0.236806
0.698990 0.141770 0.234577
0.830556 0.140372 0.232474
0.954149 0.139059 0.230500
1.000000 0.137831 0.228652
0.046051 0.268766 0.238317
0.161670 0.267538 0.236470
0.285262 0.266224 0.234495
0.416828 0.264827 0.232393
0.556368 0.263344 0.230163
0.695908 0.261861 0.227933
0.827475 0.260464 0.225831
0.951067 0.259151 0.223856
1.000000 0.257922 0.222008
0.042770 0.396605 0.231245
0.158389 0.395377 0.229397
0.281982 0.394063 0.227423
0.413548 0.392666 0.225320
0.553088 0.391183 0.223091
0.692628 0.389700 0.220861
0.824194 0.388303 0.218759
0.947787 0.386990 0.216784
1.000000 0.385761 0.214936
0.039291 0.532192 0.223744
0.154910 0.530963 0.221897
0.278502 0.529650 0.219922
0.410069 0.528252 0.217819
0.549609 0.526770 0.215590
0.689149 0.525287 0.213360
0.820715 0.523889 0.211258
0.944307 0.522576 0.209283
1.000000 0.521348 0.207435
0.035812 0.667779 0.216243
0.151431 0.666550 0.214396
0.275023 0.665237 0.212421
0.406589 0.663839 0.210319
0.546129 0.662357 0.208089
0.685669 0.660874 0.205859
0.817235 0.659476 0.203757
0.940828 0.658163 0.201782
1.000000 0.656935 0.199935
0.032531 0.795618 0.209171
0.148150 0.794389 0.207323
0.271743 0.793076 0.205349
0.403309 0.791678 0.203246
0.542849 0.790196 0.201017
0.682389 0.788713 0.198787
0.813955 0.787315 0.196685
0.937548 0.786002 0.194710
1.000000 0.784774 0.192862
0.029450 0.915709 0.202527
0.145068 0.914480 0.200680
0.268661 0.913167 0.198705
0.400227 0.911769 0.196603
0.539767 0.910287 0.194373
0.679307 0.908804 0.192143
0.810873 0.907407 0.190041
0.934466 0.906093 0.188066
1.000000 0.904865 0.186219
0.026567 1.000000 0.196312
0.142186 1.000000 0.194465
0.265778 1.000000 0.192490
0.397344 1.000000 0.190388
0.536884 1.000000 0.188158
0.676424 1.000000 0.185928
0.807990 1.000000 0.183826
0.931583 1.000000 0.181851
1.000000 1.000000 0.180004
0.051684 0.035857 0.383003
0.167303 0.034628 0.381156
0.290896 0.033315 0.379181
0.422462 0.031917 0.377079
0.562002 0.030435 0.374849
0.701542 0.028952 0.372619
0.833108 0.027554 0.370517
0.956700 0.026241 0.368542
1.000000 0.025013 0.366695
0.048801 0.148200 0.376788
0.164420 0.146972 0.374941
0.288013 0.145658 0.372966
0.419579 0.144261 0.370864
0.559119 0.142778 0.368634
0.698659 0.141296 0.366404
0.830225 0.139898 0.364302
0.953818 0.138585 0.362327
1.000000 0.137356 0.360480
0.045720 0.268291 0.370145
0.161338 0.267063 0.368297
0.284931 0.265750 0.366322
0.416497 0.264352 0.364220
0.556037 0.262869 0.361990
0.695577 0.261387 0.359761
0.827143 0.259989 0.357658
0.950736 0.258676 0.355683
1.000000 0.257447 0.353836
0.042439 0.396130 0.363072
0.158058 0.394902 0.361225
0.281651 0.393589 0.359250
0.413217 0.392191 0.357148
0.552757 0.390708 0.354918
0.692297 0.389226 0.352688
0.823863 0.387828 0.350586
0.947455 0.386515 0.348611
1.000000 0.385286 0.346764
0.038960 0.531717 0.355572
0.154579 0.530489 0.353724
0.278171 0.529176 0.351749
0.409737 0.527778 0.349647
0.549277 0.526295 0.347417
0.688817 0.524813 0.345187
0.820384 0.523415 0.343085
0.943976 0.522102 0.341110
1.000000 0.520873 0.339263
0.035481 0.667304 0.348071
0.151099 0.666075 0.346223
0.274692 0.664762 0.344248
0.406258 0.663365 0.342146
0.545798 0.661882 0.339916
0.685338 0.660399 0.337687
0.816904 0.659002 0.335584
0.940497 0.657688 0.333609
1.000000 0.656460 0.331762
0.032200 0.795143 0.340998
0.147819 0.793914 0.339151
0.271411 0.792601 0.337176
0.402978 0.791204 0.335074
0.542518 0.789721 0.332844
0.682058 0.788238 0.330614
0.813624 0.786841 0.328512
0.937216 0.785528 0.326537
1.000000 0.784299 0.324690
0.029118 0.915234 0.334355
0.144737 0.914006 0.332507
0.268330 0.912693 0.330532
0.399896 0.911295 0.328430
0.539436 0.909812 0.326200
0.678976 0.908330 0.323971
0.810542 0.906932 0.321868
0.934135 0.905619 0.319894
1.000000 0.904390 0.318046
0.026236 1.000000 0.328140
0.141854 1.000000 0.326292
0.265447 1.000000 0.324317
0.397013 1.000000 0.322215
0.536553 1.000000 0.319985
0.676093 1.000000 0.317756
0.807659 1.000000 0.315653
0.931252 1.000000 0.313679
1.000000 1.000000 0.311831
0.051333 0.035353 0.522820
0.166952 0.034125 0.520973
0.290544 0.032812 0.518998
0.422111 0.031414 0.516896
0.561650 0.029931 0.514666
0.701190 0.028449 0.512436
0.832757 0.027051 0.510334
0.956349 0.025738 0.508359
1.000000 0.024509 0.506512
0.048450 0.147697 0.516605
0.164069 0.146468 0.514758
0.287661 0.145155 0.512783
0.419228 0.143757 0.510681
0.558768 0.142275 0.508451
0.698308 0.140792 0.506221
0.829874 0.139394 0.504119
0.953466 0.138081 0.502144
1.000000 0.136853 0.500297
0.045368 0.267788 0.509962
0.160987 0.266559 0.508114
0.284580 0.265246 0.506139
0.416146 0.263848 0.504037
0.555686 0.262366 0.501807
0.695226 0.260883 0.499578
0.826792 0.259485 0.497475
0.950385 0.258172 0.495500
1.000000 0.256944 0.493653
0.042088 0.395627 0.502889
0.157707 0.394398 0.501042
0.281299 0.393085 0.499067
0.412866 0.391687 0.496965
0.552405 0.390205 0.494735
0.691945 0.388722 0.492505
0.823512 0.387324 0.490403
0.947104 0.386011 0.488428
1.000000 0.384783 0.486581
0.038609 0.531214 0.495389
0.154227 0.529985 0.493541
0.277820 0.528672 0.491566
0.409386 0.527274 0.489464
0.548926 0.525792 0.487234
0.688466 0.524309 0.485004
0.820032 0.522911 0.482902
0.943625 0.521598 0.480927
1.000000 0.520370 0.479080
0.035129 0.666800 0.487888
0.150748 0.665572 0.486040
0.274341 0.664259 0.484065
0.405907 0.662861 0.481963
0.545447 0.661379 0.479733
0.684987 0.659896 0.477504
0.816553 0.658498 0.475401
0.940146 0.657185 0.473426
1.000000 0.655957 0.471579
0.031849 0.794639 0.480815
0.147468 0.793411 0.478968
0.271060 0.792098 0.476993
0.402626 0.790700 0.474891
0.542166 0.789218 0.472661
0.681706 0.787735 0.470431
0.813273 0.786337 0.468329
0.936865 0.785024 0.466354
1.000000 0.783796 0.464507
0.028767 0.914731 0.474172
0.144386 0.913502 0.472324
0.267978 0.912189 0.470349
0.399545 0.910791 0.468247
0.539085 0.909309 0.466017
0.678625 0.907826 0.463788
0.810191 0.906428 0.461685
0.933783 0.905115 0.459711
1.000000 0.903887 0.457863
0.025884 1.000000 0.467957
0.141503 1.000000 0.466109
0.265096 1.000000 0.464134
0.396662 1.000000 0.462032
0.536202 1.000000 0.459802
0.675742 1.000000 0.457573
0.807308 1.000000 0.455470
0.930901 1.000000 0.453496
1.000000 1.000000 0.451648
0.050982 0.034850 0.662637
0.166601 0.033621 0.660790
0.290193 0.032308 0.658815
0.421759 0.030910 0.656713
0.561299 0.029428 0.654483
0.700839 0.027945 0.652253
0.832405 0.026547 0.650151
0.955998 0.025234 0.648176
1.000000 0.024006 0.646329
0.048099 0.147193 0.656422
0.163718 0.145965 0.654575
0.287310 0.144652 0.652600
0.418876 0.143254 0.650498
0.558416 0.141771 0.648268
0.697956 0.140289 0.646038
0.829523 0.138891 0.643936
0.953115 0.137578 0.641961
1.000000 0.136349 0.640114
0.045017 0.267284 0.649779
0.160636 0.266056 0.647931
0.284229 0.264743 0.645956
0.415795 0.263345 0.643854
0.555335 0.261862 0.641624
0.694875 0.260380 0.639395
0.826441 0.258982 0.637292
0.950033 0.257669 0.635317
1.000000 0.256440 0.633470
0.041737 0.395123 0.642706
0.157355 0.393895 0.640859
0.280948 0.392582 0.638884
0.412514 0.391184 0.636782
0.552054 0.389701 0.634552
0.691594 0.388219 0.632322
0.823160 0.386821 0.630220
0.946753 0.385508 0.628245
1.000000 0.384279 0.626398
0.038257 0.530710 0.635206
0.153876 0.529482 0.633358
0.277469 0.528169 0.631383
0.409035 0.526771 0.629281
0.548575 0.525288 0.627051
0.688115 0.523806 0.624821
0.819681 0.522408 0.622719
0.943274 0.521095 0.620744
1.000000 0.519866 0.618897
0.034778 0.666297 0.627705
0.150397 0.665069 0.625857
0.273989 0.663755 0.623882
0.405556 0.662358 0.621780
0.545096 0.660875 0.619550
0.684636 0.659392 0.617321
0.816202 0.657995 0.615218
0.939794 0.656682 0.613243
1.000000 0.655453 0.611396
0.031498 0.794136 0.620632
0.147116 0.792908 0.618785
0.270709 0.791594 0.616810
0.402275 0.790197 0.614708
0.541815 0.788714 0.612478
0.681355 0.787231 0.610248
0.812921 0.785834 0.608146
0.936514 0.784521 0.606171
1.000000 0.783292 0.604324
0.028416 0.914227 0.613989
0.144035 0.912999 0.612141
0.267627 0.911686 0.610166
0.399194 0.910288 0.608064
0.538733 0.908805 0.605834
0.678273 0.907323 0.603605
0.809840 0.905925 0.601502
0.933432 0.904612 0.599528
1.000000 0.903383 0.597680
0.025533 1.000000 0.607774
0.141152 1.000000 0.605926
0.264744 1.000000 0.603951
0.396311 1.000000 0.601849
0.535851 1.000000 0.599619
0.675391 1.000000 0.597390
0.806957 1.000000 0.595287
0.930549 1.000000 0.593313
1.000000 1.000000 0.591465
0.050651 0.034375 0.794465
0.166269 0.033147 0.792617
0.289862 0.031833 0.790642
0.421428 0.030436 0.788540
0.560968 0.028953 0.786310
0.700508 0.027471 0.784081
0.832074 0.026073 0.781978
0.955667 0.024760 0.780003
1.000000 0.023531 0.778156
0.047768 0.146718 0.788250
0.163386 0.145490 0.786402
0.286979 0.144177 0.784427
0.418545 0.142779 0.782325
0.558085 0.141296 0.780095
0.697625 0.139814 0.777866
0.829191 0.138416 0.775763
0.952784 0.137103 0.773788
1.000000 0.135875 0.771941
0.044686 0.266810 0.781606
0.160305 0.265581 0.779759
0.283897 0.264268 0.777784
0.415464 0.262870 0.775681
0.555004 0.261388 0.773452
0.694544 0.259905 0.771222
0.826110 0.258507 0.769120
0.949702 0.257194 0.767145
1.000000 0.255966 0.765297
0.041406 0.394649 0.774534
0.157024 0.393420 0.772686
0.280617 0.392107 0.770711
0.412183 0.390709 0.768609
0.551723 0.389227 0.766379
0.691263 0.387744 0.764150
0.822829 0.386346 0.762048
0.946422 0.385033 0.760073
1.000000 0.383805 0.758225
0.037926 0.530235 0.767033
0.153545 0.529007 0.765186
0.277138 0.527694 0.763211
0.408704 0.526296 0.761108
0.548244 0.524813 0.758879
0.687784 0.523331 0.756649
0.819350 0.521933 0.754547
0.942943 0.520620 0.752572
1.000000 0.519392 0.750724
0.034447 0.665822 0.759532
0.150066 0.664594 0.757685
0.273658 0.663281 0.755710
0.405225 0.661883 0.753607
0.544764 0.660400 0.751378
0.684304 0.658918 0.749148
0.815871 0.657520 0.747046
0.939463 0.656207 0.745071
1.000000 0.654978 0.743223
0.031166 0.793661 0.752460
0.146785 0.792433 0.750612
0.270378 0.791120 0.748638
0.401944 0.789722 0.746535
0.541484 0.788239 0.744306
0.681024 0.786757 0.742076
0.812590 0.785359 0.739974
0.936183 0.784046 0.737999
1.000000 0.782817 0.736151
0.028085 0.913752 0.745816
0.143704 0.912524 0.743969
0.267296 0.911211 0.741994
0.398862 0.909813 0.739892
0.538402 0.908331 0.737662
0.677942 0.906848 0.735432
0.809509 0.905450 0.733330
0.933101 0.904137 0.731355
1.000000 0.902909 0.729508
0.025202 1.000000 0.739601
0.140821 1.000000 0.737754
0.264413 1.000000 0.735779
0.395979 1.000000 0.733677
0.535519 1.000000 0.731447
0.675059 1.000000 0.729217
0.806626 1.000000 0.727115
0.930218 1.000000 0.725140
1.000000 1.000000 0.723293
0.050339 0.033929 0.918303
0.165958 0.032701 0.916455
0.289551 0.031388 0.914480
0.421117 0.029990 0.912378
0.560657 0.028507 0.910148
0.700197 0.027025 0.907919
0.831763 0.025627 0.905816
0.955356 0.024314 0.903841
1.000000 0.023085 0.901994
0.047457 0.146272 0.912088
0.163075 0.145044 0.910240
0.286668 0.143731 0.908265
0.418234 0.142333 0.906163
0.557774 0.140851 0.903933
0.697314 0.139368 0.901704
0.828880 0.137970 0.899601
0.952473 0.136657 0.897626
1.000000 0.135429 0.895779
0.044375 0.266364 0.905444
0.159994 0.265135 0.903597
0.283586 0.263822 0.901622
0.415153 0.262424 0.899519
0.554692 0.260942 0.897290
0.694232 0.259459 0.895060
0.825799 0.258061 0.892958
0.949391 0.256748 0.890983
1.000000 0.255520 0.889135
0.041094 0.394203 0.898372
0.156713 0.392974 0.896524
0.280306 0.391661 0.894549
0.411872 0.390263 0.892447
0.551412 0.388781 0.890217
0.690952 0.387298 0.887988
0.822518 0.385900 0.885885
0.946111 0.384587 0.883911
1.000000 0.383359 0.882063
0.037615 0.529789 0.890871
0.153234 0.528561 0.889023
0.276826 0.527248 0.887049
0.408393 0.525850 0.884946
0.547933 0.524368 0.882717
0.687473 0.522885 0.880487
0.819039 0.521487 0.878385
0.942631 0.520174 0.876410
1.000000 0.518946 0.874562
0.034136 0.665376 0.883370
0.149755 0.664148 0.881523
0.273347 0.662835 0.879548
0.404913 0.661437 0.877445
0.544453 0.659954 0.875216
0.683993 0.658472 0.872986
0.815560 0.657074 0.870884
0.939152 0.655761 0.868909
1.000000 0.654532 0.867061
0.030855 0.793215 0.876298
0.146474 0.791987 0.874450
0.270067 0.790674 0.872475
0.401633 0.789276 0.870373
0.541173 0.787793 0.868143
0.680713 0.786311 0.865914
0.812279 0.784913 0.863811
0.935872 0.783600 0.861837
1.000000 0.782372 0.859989
0.027774 0.913306 0.869654
0.143392 0.912078 0.867807
0.266985 0.910765 0.865832
0.398551 0.909367 0.863730
0.538091 0.907885 0.861500
0.677631 0.906402 0.859270
0.809197 0.905004 0.857168
0.932790 0.903691 0.855193
1.000000 0.902463 0.853346
0.024891 1.000000 0.863439
0.140510 1.000000 0.861592
0.264102 1.000000 0.859617
0.395668 1.000000 0.857515
0.535208 1.000000 0.855285
0.674748 1.000000 0.853055
0.806315 1.000000 0.850953
0.929907 1.000000 0.848978
1.000000 1.000000 0.847131
0.050048 0.033512 1.000000
0.165667 0.032283 1.000000
0.289260 0.030970 1.000000
0.420826 0.029573 1.000000
0.560366 0.028090 1.000000
0.699906 0.026607 1.000000
0.831472 0.025210 1.000000
0.955065 0.023896 1.000000
1.000000 0.022668 1.000000
0.047166 0.145855 1.000000
0.162784 0.144627 1.000000
0.286377 0.143314 1.000000
0.417943 0.141916 1.000000
0.557483 0.140433 1.000000
0.697023 0.138951 1.000000
0.828589 0.137553 1.000000
0.952182 0.136240 1.000000
1.000000 0.135011 1.000000
0.044084 0.265946 1.000000
0.159703 0.264718 1.000000
0.283295 0.263405 1.000000
0.414861 0.262007 1.000000
0.554401 0.260525 1.000000
0.693941 0.259042 1.000000
0.825508 0.257644 1.000000
0.949100 0.256331 1.000000
1.000000 0.255103 1.000000
0.040803 0.393785 1.000000
0.156422 0.392557 1.000000
0.280015 0.391244 1.000000
0.411581 0.389846 1.000000
0.551121 0.388364 1.000000
0.690661 0.386881 1.000000
0.822227 0.385483 1.000000
0.945820 0.384170 0.999759
1.000000 0.382942 0.997911
0.037324 0.529372 1.000000
0.152943 0.528144 1.000000
0.276535 0.526831 1.000000
0.408102 0.525433 1.000000
0.547642 0.523950 0.998565
0.687182 0.522468 0.996335
0.818748 0.521070 0.994233
0.942340 0.519757 0.992258
1.000000 0.518528 0.990411
0.033845 0.664959 0.999218
0.149464 0.663731 0.997371
0.273056 0.662418 0.995396
0.404622 0.661020 0.993294
0.544162 0.659537 0.991064
0.683702 0.658055 0.988834
0.815269 0.656657 0.986732
0.938861 0.655344 0.984757
1.000000 0.654115 0.982910
0.030564 0.792798 0.992146
0.146183 0.791570 0.990299
0.269776 0.790257 0.988324
0.401342 0.788859 0.986222
0.540882 0.787376 0.983992
0.680422 0.785894 0.981762
0.811988 0.784496 0.979660
0.935581 0.783183 0.977685
1.000000 0.781954 0.975838
0.027483 0.912889 0.985503
0.143101 0.911661 0.983655
0.266694 0.910348 0.981680
0.398260 0.908950 0.979578
0.537800 0.907467 0.977348
0.677340 0.905985 0.975119
0.808906 0.904587 0.973016
0.932499 0.903274 0.971041
1.000000 0.902046 0.969194
0.024600 1.000000 0.979288
0.140219 1.000000 0.977440
0.263811 1.000000 0.975465
0.395377 1.000000 0.973363
0.534917 1.000000 0.971133
0.674457 1.000000 0.968904
0.806024 1.000000 0.966801
0.929616 1.000000 0.964826
1.000000 1.000000 0.962979
