assets/luts/mayotte_signature.cube
TITLE "teal_orange"
LUT_3D_SIZE 9
0.000000 0.008611 0.054811
0.080063 0.005944 0.050224
0.210776 0.003009 0.045176
0.353450 0.000000 0.039666
0.508084 0.000000 0.033693
0.662718 0.000000 0.027721
0.805391 0.000000 0.022211
0.936104 0.000000 0.017162
1.000000 0.000000 0.012576
0.000000 0.119094 0.039382
0.077705 0.116427 0.034795
0.208418 0.113492 0.029747
0.351092 0.110288 0.024237
0.505726 0.106816 0.018264
0.660360 0.103344 0.012292
0.803033 0.100140 0.006782
0.933746 0.097205 0.001733
1.000000 0.094538 0.000000
0.000000 0.240704 0.022399
0.075110 0.238038 0.017812
0.205823 0.235102 0.012764
0.348496 0.231899 0.007253
0.503130 0.228426 0.001281
0.657765 0.224954 0.000000
0.800438 0.221751 0.000000
0.931151 0.218815 0.000000
1.000000 0.216149 0.000000
0.000000 0.373442 0.003861
0.072277 0.370776 0.000000
0.202990 0.367841 0.000000
0.345663 0.364637 0.000000
0.500297 0.361165 0.000000
0.654932 0.357692 0.000000
0.797605 0.354489 0.000000
0.928318 0.351554 0.000000
1.000000 0.348887 0.000000
0.000000 0.517308 0.000000
0.069207 0.514642 0.000000
0.199919 0.511707 0.000000
0.342593 0.508503 0.000000
0.497227 0.505031 0.000000
0.651861 0.501558 0.000000
0.794535 0.498355 0.000000
0.925248 0.495420 0.000000
1.000000 0.493500 0.000000
0.000000 0.661174 0.000000
0.066136 0.658508 0.000000
0.196849 0.655573 0.000000
0.339523 0.652369 0.000000
0.495085 0.649431 0.000000
0.650800 0.647199 0.000000
0.794472 0.645140 0.000000
0.926099 0.643253 0.000000
1.000000 0.641539 0.000000
0.000000 0.793965 0.000000
0.064594 0.792197 0.000000
0.196222 0.790310 0.000000
0.339893 0.788251 0.000000
0.495609 0.786019 0.000000
0.651325 0.783787 0.000000
0.794997 0.781728 0.000000
0.926624 0.779842 0.000000
1.000000 0.778128 0.000000
0.000000 0.919049 0.000000
0.065075 0.917335 0.000000
0.196702 0.915448 0.000000
0.340374 0.913389 0.000000
0.496090 0.911157 0.000000
0.651806 0.908925 0.000000
0.795477 0.906866 0.000000
0.927104 0.904979 0.000000
1.000000 0.903266 0.000000
0.000000 1.000000 0.000000
0.065512 1.000000 0.000000
0.197139 1.000000 0.000000
0.340810 1.000000 0.000000
0.496526 1.000000 0.000000
0.652242 1.000000 0.000000
0.795914 1.000000 0.000000
0.927541 1.000000 0.000000
1.000000 1.000000 0.000000
0.000000 0.007705 0.172706
0.079825 0.005039 0.168120
0.210538 0.002104 0.163072
0.353211 0.000000 0.157561
0.507846 0.000000 0.151589
0.662480 0.000000 0.145617
0.805153 0.000000 0.140106
0.935866 0.000000 0.135058
1.000000 0.000000 0.130471
0.000000 0.118188 0.157277
0.077467 0.115522 0.152691
0.208180 0.112586 0.147642
0.350854 0.109383 0.142132
0.505488 0.105910 0.136160
0.660122 0.102438 0.130188
0.802795 0.099234 0.124677
0.933508 0.096299 0.119629
1.000000 0.093633 0.115042
0.000000 0.239799 0.140294
0.074872 0.237132 0.135708
0.205585 0.234197 0.130659
0.348258 0.230993 0.125149
0.502892 0.227521 0.119177
0.657527 0.224049 0.113204
0.800200 0.220845 0.107694
0.930913 0.217910 0.102646
1.000000 0.215243 0.098059
0.000000 0.372537 0.121757
0.072039 0.369870 0.117171
0.202752 0.366935 0.112122
0.345425 0.363731 0.106612
0.500059 0.360259 0.100639
0.654694 0.356787 0.094667
0.797367 0.353583 0.089157
0.928080 0.350648 0.084108
1.000000 0.347981 0.079522
0.000000 0.516403 0.101666
0.068968 0.513736 0.097079
0.199681 0.510801 0.092031
0.342355 0.507597 0.086521
0.496989 0.504125 0.080548
0.651623 0.500653 0.074576
0.794297 0.497449 0.069066
0.925533 0.494642 0.063462
1.000000 0.492918 0.058504
0.000000 0.660269 0.081575
0.065898 0.657602 0.076988
0.196611 0.654667 0.071940
0.339284 0.651463 0.066429
0.495129 0.648849 0.059600
0.650844 0.646617 0.053221
0.794516 0.644558 0.047336
0.926143 0.642671 0.041944
1.000000 0.640957 0.037045
0.000000 0.793329 0.062356
0.064638 0.791615 0.057457
0.196266 0.789728 0.052065
0.339937 0.787669 0.046180
0.495653 0.785437 0.039801
0.651369 0.783205 0.033422
0.795041 0.781146 0.027537
0.926668 0.779260 0.022145
1.000000 0.777546 0.017247
0.000000 0.918466 0.044217
0.065119 0.916753 0.039318
0.196746 0.914866 0.033926
0.340418 0.912807 0.028041
0.496134 0.910575 0.021662
0.651850 0.908343 0.015284
0.795521 0.906284 0.009398
0.927148 0.904397 0.004006
1.000000 0.902683 0.000000
0.000000 1.000000 0.027738
0.065556 1.000000 0.022839
0.197183 1.000000 0.017447
0.340855 1.000000 0.011562
0.496570 1.000000 0.005183
0.652286 1.000000 0.000000
0.795958 1.000000 0.000000
0.927585 1.000000 0.000000
1.000000 1.000000 0.000000
0.000000 0.006709 0.302476
0.079563 0.004042 0.297890
0.210276 0.001107 0.292842
0.352949 0.000000 0.287331
0.507584 0.000000 0.281359
0.662218 0.000000 0.275387
0.804891 0.000000 0.269876
0.935604 0.000000 0.264828
1.000000 0.000000 0.260241
0.000000 0.117191 0.287047
0.077205 0.114525 0.282461
0.207918 0.111590 0.277412
0.350592 0.108386 0.271902
0.505226 0.104914 0.265930
0.659860 0.101441 0.259957
0.802533 0.098238 0.254447
0.933246 0.095303 0.249399
1.000000 0.092636 0.244812
0.000000 0.238802 0.270064
0.074610 0.236135 0.265478
0.205323 0.233200 0.260429
0.347996 0.229996 0.254919
0.502630 0.226524 0.248947
0.657264 0.223052 0.242974
0.799938 0.219848 0.237464
0.930651 0.216913 0.232415
1.000000 0.214247 0.227829
0.000000 0.371540 0.251527
0.071777 0.368873 0.246940
0.202490 0.365938 0.241892
0.345163 0.362735 0.236382
0.499797 0.359262 0.230409
0.654432 0.355790 0.224437
0.797105 0.352586 0.218927
0.927818 0.349651 0.213878
1.000000 0.346985 0.209292
0.000000 0.515406 0.231436
0.068706 0.512739 0.226849
0.199419 0.509804 0.221801
0.342093 0.506601 0.216290
0.496727 0.503128 0.210318
0.651361 0.499656 0.204346
0.794035 0.496452 0.198836
0.925623 0.493992 0.193055
1.000000 0.492278 0.188157
0.000000 0.659272 0.211344
0.065636 0.656605 0.206758
0.196349 0.653670 0.201710
0.339175 0.650504 0.196038
0.495177 0.648208 0.189253
0.650893 0.645976 0.182874
0.794565 0.643917 0.176989
0.926192 0.642030 0.171597
1.000000 0.640317 0.166698
0.000000 0.792688 0.192009
0.064687 0.790974 0.187110
0.196314 0.789087 0.181718
0.339986 0.787028 0.175833
0.495702 0.784796 0.169454
0.651418 0.782565 0.163076
0.795089 0.780505 0.157190
0.926716 0.778619 0.151798
1.000000 0.776905 0.146900
0.000000 0.917826 0.173870
0.065168 0.916112 0.168971
0.196795 0.914225 0.163580
0.340466 0.912166 0.157694
0.496182 0.909934 0.151316
0.651898 0.907702 0.144937
0.795570 0.905643 0.139051
0.927197 0.903757 0.133660
1.000000 0.902043 0.128761
0.000000 1.000000 0.157391
0.065604 1.000000 0.152492
0.197231 1.000000 0.147100
0.340903 1.000000 0.141215
0.496619 1.000000 0.134836
0.652335 1.000000 0.128458
0.796006 1.000000 0.122572
0.927634 1.000000 0.117180
1.000000 1.000000 0.112282
0.000000 0.005621 0.444121
0.079277 0.002954 0.439534
0.209990 0.000019 0.434486
0.352664 0.000000 0.428975
0.507298 0.000000 0.423003
0.661932 0.000000 0.417031
0.804605 0.000000 0.411520
0.935318 0.000000 0.406472
1.000000 0.000000 0.401886
0.000000 0.116103 0.428692
0.076919 0.113437 0.424105
0.207632 0.110502 0.419057
0.350306 0.107298 0.413546
0.504940 0.103826 0.407574
0.659574 0.100353 0.401602
0.802247 0.097150 0.396091
0.932960 0.094215 0.391043
1.000000 0.091548 0.386456
0.000000 0.237714 0.411708
0.074324 0.235047 0.407122
0.205037 0.232112 0.402073
0.347710 0.228908 0.396563
0.502344 0.225436 0.390591
0.656979 0.221964 0.384619
0.799652 0.218760 0.379108
0.930365 0.215825 0.374060
1.000000 0.213159 0.369473
0.000000 0.370452 0.393171
0.071491 0.367785 0.388585
0.202204 0.364850 0.383536
0.344877 0.361647 0.378026
0.499511 0.358174 0.372054
0.654146 0.354702 0.366081
0.796819 0.351498 0.360571
0.927532 0.348563 0.355523
1.000000 0.345897 0.350936
0.000000 0.514318 0.373080
0.068420 0.511651 0.368494
0.199133 0.508716 0.363445
0.341807 0.505513 0.357935
0.496441 0.502040 0.351962
0.651075 0.498568 0.345990
0.793749 0.495364 0.340480
0.925676 0.493292 0.334572
1.000000 0.491578 0.329674
0.000000 0.658184 0.352989
0.065350 0.655517 0.348402
0.196063 0.652582 0.343354
0.339514 0.649741 0.337149
0.495230 0.647509 0.330770
0.650946 0.645277 0.324391
0.794618 0.643218 0.318506
0.926245 0.641331 0.313114
1.000000 0.639617 0.308215
0.000000 0.791989 0.333526
0.064740 0.790275 0.328627
0.196367 0.788388 0.323235
0.340039 0.786329 0.317350
0.495755 0.784097 0.310971
0.651471 0.781865 0.304593
0.795142 0.779806 0.298707
0.926769 0.777920 0.293315
1.000000 0.776206 0.288417
0.000000 0.917126 0.315387
0.065221 0.915413 0.310488
0.196848 0.913526 0.305096
0.340519 0.911467 0.299211
0.496235 0.909235 0.292832
0.651951 0.907003 0.286454
0.795623 0.904944 0.280568
0.927250 0.903057 0.275176
1.000000 0.901343 0.270278
0.000000 1.000000 0.298908
0.065657 1.000000 0.294009
0.197284 1.000000 0.288617
0.340956 1.000000 0.282732
0.496672 1.000000 0.276353
0.652388 1.000000 0.269975
0.796059 1.000000 0.264089
0.927687 1.000000 0.258697
1.000000 1.000000 0.253799
0.000000 0.004441 0.597639
0.078967 0.001775 0.593053
0.209680 0.000000 0.588004
0.352354 0.000000 0.582494
0.506988 0.000000 0.576522
0.661622 0.000000 0.570549
0.804295 0.000000 0.565039
0.935008 0.000000 0.559991
1.000000 0.000000 0.555404
0.000000 0.114924 0.582210
0.076609 0.112258 0.577624
0.207322 0.109322 0.572575
0.349996 0.106119 0.567065
0.504630 0.102646 0.561093
0.659264 0.099174 0.555120
0.801937 0.095971 0.549610
0.932650 0.093035 0.544562
1.000000 0.090369 0.539975
0.000000 0.236535 0.565227
0.074014 0.233868 0.560641
0.204727 0.230933 0.555592
0.347400 0.227729 0.550082
0.502034 0.224257 0.544109
0.656669 0.220785 0.538137
0.799342 0.217581 0.532627
0.930055 0.214646 0.527578
1.000000 0.211979 0.522992
0.000000 0.369273 0.546690
0.071181 0.366606 0.542103
0.201894 0.363671 0.537055
0.344567 0.360467 0.531545
0.499201 0.356995 0.525572
0.653836 0.353523 0.519600
0.796509 0.350319 0.514090
0.927222 0.347384 0.509041
1.000000 0.344718 0.504455
0.000000 0.513139 0.526599
0.068111 0.510472 0.522012
0.198823 0.507537 0.516964
0.341497 0.504333 0.511453
0.496131 0.500861 0.505481
0.650765 0.497389 0.499509
0.794106 0.494421 0.493345
0.925734 0.492534 0.487953
1.000000 0.490820 0.483054
0.000000 0.657005 0.506507
0.065040 0.654338 0.501921
0.195753 0.651403 0.496873
0.339572 0.648983 0.490529
0.495287 0.646751 0.484151
0.651003 0.644519 0.477772
0.794675 0.642460 0.471887
0.926302 0.640573 0.466495
1.000000 0.638859 0.461596
0.000000 0.791231 0.486906
0.064797 0.789517 0.482008
0.196425 0.787630 0.476616
0.340096 0.785571 0.470731
0.495812 0.783339 0.464352
0.651528 0.781107 0.457973
0.795200 0.779048 0.452088
0.926827 0.777162 0.446696
1.000000 0.775448 0.441797
0.000000 0.916369 0.468768
0.065278 0.914655 0.463869
0.196905 0.912768 0.458477
0.340577 0.910709 0.452592
0.496293 0.908477 0.446213
0.652009 0.906245 0.439834
0.795680 0.904186 0.433949
0.927307 0.902299 0.428557
1.000000 0.900586 0.423659
0.000000 1.000000 0.452289
0.065715 1.000000 0.447390
0.197342 1.000000 0.441998
0.341013 1.000000 0.436113
0.496729 1.000000 0.429734
0.652445 1.000000 0.423355
0.796117 1.000000 0.417470
0.927744 1.000000 0.412078
1.000000 1.000000 0.407179
0.000000 0.003262 0.751158
0.078657 0.000596 0.746572
0.209370 0.000000 0.741523
0.352044 0.000000 0.736013
0.506678 0.000000 0.730040
0.661312 0.000000 0.724068
0.803985 0.000000 0.718558
0.934698 0.000000 0.713509
1.000000 0.000000 0.708923
0.000000 0.113745 0.735729
0.076299 0.111078 0.731142
0.207012 0.108143 0.726094
0.349686 0.104940 0.720584
0.504320 0.101467 0.714611
0.658954 0.097995 0.708639
0.801628 0.094791 0.703129
0.932340 0.091856 0.698080
1.000000 0.089190 0.693494
0.000000 0.235355 0.718746
0.073704 0.232689 0.714159
0.204417 0.229754 0.709111
0.347090 0.226550 0.703600
0.501724 0.223078 0.697628
0.656359 0.219605 0.691656
0.799032 0.216402 0.686145
0.929745 0.213467 0.681097
1.000000 0.210800 0.676511
0.000000 0.368094 0.700208
0.070871 0.365427 0.695622
0.201584 0.362492 0.690574
0.344257 0.359288 0.685063
0.498892 0.355816 0.679091
0.653526 0.352344 0.673119
0.796199 0.349140 0.667608
0.926912 0.346205 0.662560
1.000000 0.343538 0.657973
0.000000 0.511960 0.680117
0.067801 0.509293 0.675531
0.198513 0.506358 0.670482
0.341187 0.503154 0.664972
0.495821 0.499682 0.659000
0.650455 0.496210 0.653027
0.794164 0.493663 0.646726
0.925791 0.491776 0.641334
1.000000 0.490062 0.636435
0.000000 0.655825 0.660026
0.064730 0.653159 0.655440
0.195817 0.650315 0.649994
0.339629 0.648225 0.643910
0.495345 0.645993 0.637531
0.651061 0.643761 0.631152
0.794732 0.641702 0.625267
0.926360 0.639815 0.619875
1.000000 0.638101 0.614977
0.000000 0.790473 0.640287
0.064855 0.788759 0.635389
0.196482 0.786872 0.629997
0.340154 0.784813 0.624111
0.495869 0.782581 0.617733
0.651585 0.780349 0.611354
0.795257 0.778290 0.605469
0.926884 0.776404 0.600077
1.000000 0.774690 0.595178
0.000000 0.915611 0.622148
0.065335 0.913897 0.617250
0.196963 0.912010 0.611858
0.340634 0.909951 0.605972
0.496350 0.907719 0.599594
0.652066 0.905487 0.593215
0.795738 0.903428 0.587330
0.927365 0.901542 0.581938
1.000000 0.899828 0.577039
0.000000 1.000000 0.605669
0.065772 1.000000 0.600771
0.197399 1.000000 0.595379
0.341071 1.000000 0.589493
0.496787 1.000000 0.583115
0.652503 1.000000 0.576736
0.796174 1.000000 0.570851
0.927801 1.000000 0.565459
1.000000 1.000000 0.560560
0.000000 0.002174 0.892802
0.078371 0.000000 0.888216
0.209084 0.000000 0.883167
0.351758 0.000000 0.877657
0.506392 0.000000 0.871685
0.661026 0.000000 0.865712
0.803699 0.000000 0.860202
0.934412 0.000000 0.855154
1.000000 0.000000 0.850567
0.000000 0.112657 0.877373
0.076013 0.109990 0.872787
0.206726 0.107055 0.867738
0.349400 0.103852 0.862228
0.504034 0.100379 0.856256
0.658668 0.096907 0.850283
0.801342 0.093703 0.844773
0.932054 0.090768 0.839725
1.000000 0.088102 0.835138
0.000000 0.234267 0.860390
0.073418 0.231601 0.855803
0.204131 0.228666 0.850755
0.346804 0.225462 0.845245
0.501438 0.221990 0.839272
0.656073 0.218517 0.833300
0.798746 0.215314 0.827790
0.929459 0.212379 0.822741
1.000000 0.209712 0.818155
0.000000 0.367006 0.841853
0.070585 0.364339 0.837266
0.201298 0.361404 0.832218
0.343971 0.358200 0.826708
0.498606 0.354728 0.820735
0.653240 0.351256 0.814763
0.795913 0.348052 0.809253
0.926626 0.345117 0.804204
1.000000 0.342450 0.799618
0.000000 0.510872 0.821762
0.067515 0.508205 0.817175
0.198227 0.505270 0.812127
0.340901 0.502066 0.806616
0.495535 0.498594 0.800644
0.650169 0.495122 0.794672
0.794217 0.492964 0.788242
0.925844 0.491077 0.782851
1.000000 0.489363 0.777952
0.000000 0.654737 0.801670
0.064444 0.652071 0.797084
0.196010 0.649585 0.791312
0.339682 0.647525 0.785427
0.495398 0.645294 0.779048
0.651114 0.643062 0.772669
0.794785 0.641003 0.766784
0.926413 0.639116 0.761392
1.000000 0.637402 0.756494
0.000000 0.789773 0.781804
0.064908 0.788060 0.776905
0.196535 0.786173 0.771514
0.340207 0.784114 0.765628
0.495922 0.781882 0.759250
0.651638 0.779650 0.752871
0.795310 0.777591 0.746985
0.926937 0.775704 0.741594
1.000000 0.773990 0.736695
0.000000 0.914911 0.763665
0.065388 0.913197 0.758767
0.197016 0.911311 0.753375
0.340687 0.909252 0.747489
0.496403 0.907020 0.741111
0.652119 0.904788 0.734732
0.795790 0.902729 0.728847
0.927418 0.900842 0.723455
1.000000 0.899128 0.718556
0.000000 1.000000 0.747186
0.065825 1.000000 0.742288
0.197452 1.000000 0.736896
0.341124 1.000000 0.731010
0.496840 1.000000 0.724632
0.652556 1.000000 0.718253
0.796227 1.000000 0.712368
0.927854 1.000000 0.706976
1.000000 1.000000 0.702077
0.000000 0.001177 1.000000
0.078109 0.000000 1.000000
0.208822 0.000000 1.000000
0.351496 0.000000 1.000000
0.506130 0.000000 1.000000
0.660764 0.000000 0.995482
0.803437 0.000000 0.989972
0.934150 0.000000 0.984924
1.000000 0.000000 0.980337
0.000000 0.111660 1.000000
0.075751 0.108994 1.000000
0.206464 0.106058 0.997508
0.349138 0.102855 0.991998
0.503772 0.099383 0.986025
0.658406 0.095910 0.980053
0.801080 0.092707 0.974543
0.931792 0.089771 0.969494
1.000000 0.087105 0.964908
0.000000 0.233271 0.990160
0.073156 0.230604 0.985573
0.203869 0.227669 0.980525
0.346542 0.224465 0.975015
0.501176 0.220993 0.969042
0.655811 0.217521 0.963070
0.798484 0.214317 0.957560
0.929197 0.211382 0.952511
1.000000 0.208715 0.947925
0.000000 0.366009 0.971623
0.070323 0.363342 0.967036
0.201036 0.360407 0.961988
0.343709 0.357203 0.956477
0.498344 0.353731 0.950505
0.652978 0.350259 0.944533
0.795651 0.347055 0.939022
0.926364 0.344120 0.933974
1.000000 0.341454 0.929388
0.000000 0.509875 0.951531
0.067253 0.507208 0.946945
0.197965 0.504273 0.941897
0.340639 0.501069 0.936386
0.495273 0.497597 0.930414
0.650594 0.494382 0.923781
0.794265 0.492323 0.917896
0.925892 0.490436 0.912504
1.000000 0.488722 0.907605
0.000000 0.653741 0.931440
0.064182 0.651074 0.926854
0.196059 0.648944 0.920965
0.339730 0.646885 0.915080
0.495446 0.644653 0.908701
0.651162 0.642421 0.902323
0.794834 0.640362 0.896437
0.926461 0.638475 0.891045
1.000000 0.636761 0.886147
0.000000 0.789133 0.911457
0.064956 0.787419 0.906559
0.196583 0.785532 0.901167
0.340255 0.783473 0.895281
0.495971 0.781241 0.888903
0.651687 0.779009 0.882524
0.795358 0.776950 0.876639
0.926986 0.775064 0.871247
1.000000 0.773350 0.866348
0.000000 0.914271 0.893318
0.065437 0.912557 0.888420
0.197064 0.910670 0.883028
0.340736 0.908611 0.877143
0.496452 0.906379 0.870764
0.652167 0.904147 0.864385
0.795839 0.902088 0.858500
0.927466 0.900202 0.853108
1.000000 0.898488 0.848209
0.000000 1.000000 0.876839
0.065873 1.000000 0.871941
0.197501 1.000000 0.866549
0.341172 1.000000 0.860664
0.496888 1.000000 0.854285
0.652604 1.000000 0.847906
0.796276 1.000000 0.842021
0.927903 1.000000 0.836629
1.000000 1.000000 0.831730
0.000000 0.000272 1.000000
0.077871 0.000000 1.000000
0.208584 0.000000 1.000000
0.351258 0.000000 1.000000
0.505892 0.000000 1.000000
0.660526 0.000000 1.000000
0.803199 0.000000 1.000000
0.933912 0.000000 1.000000
1.000000 0.000000 1.000000
0.000000 0.110755 1.000000
0.075513 0.108088 1.000000
0.206226 0.105153 1.000000
0.348900 0.101949 1.000000
0.503534 0.098477 1.000000
0.658168 0.095005 1.000000
0.800842 0.091801 1.000000
0.931554 0.088866 1.000000
1.000000 0.086199 1.000000
0.000000 0.232365 1.000000
0.072918 0.229698 1.000000
0.203631 0.226763 1.000000
0.346304 0.223560 1.000000
0.500938 0.220087 1.000000
0.655573 0.216615 1.000000
0.798246 0.213411 1.000000
0.928959 0.210476 1.000000
1.000000 0.207810 1.000000
0.000000 0.365103 1.000000
0.070085 0.362437 1.000000
0.200798 0.359502 1.000000
0.343471 0.356298 1.000000
0.498105 0.352826 1.000000
0.652740 0.349353 1.000000
0.795413 0.346150 1.000000
0.926126 0.343215 1.000000
1.000000 0.340548 1.000000
0.000000 0.508969 1.000000
0.067015 0.506303 1.000000
0.197727 0.503368 1.000000
0.340401 0.500164 1.000000
0.495035 0.496692 1.000000
0.650638 0.493800 1.000000
0.794309 0.491741 1.000000
0.925937 0.489854 1.000000
1.000000 0.488140 1.000000
0.000000 0.652835 1.000000
0.064369 0.650272 1.000000
0.196103 0.648362 1.000000
0.339775 0.646303 1.000000
0.495490 0.644071 1.000000
0.651206 0.641839 1.000000
0.794878 0.639780 1.000000
0.926505 0.637893 1.000000
1.000000 0.636179 1.000000
0.000000 0.788551 1.000000
0.065000 0.786837 1.000000
0.196628 0.784950 1.000000
0.340299 0.782891 1.000000
0.496015 0.780659 1.000000
0.651731 0.778427 1.000000
0.795402 0.776368 0.994428
0.927030 0.774482 0.989036
1.000000 0.772768 0.984138
0.000000 0.913689 1.000000
0.065481 0.911975 1.000000
0.197108 0.910088 1.000000
0.340780 0.908029 0.994932
0.496496 0.905797 0.988553
0.652212 0.903565 0.982175
0.795883 0.901506 0.976289
0.927510 0.899619 0.970897
1.000000 0.897906 0.965999
0.000000 1.000000 0.994629
0.065918 1.000000 0.989730
0.197545 1.000000 0.984338
0.341216 1.000000 0.978453
0.496932 1.000000 0.972074
0.652648 1.000000 0.965696
0.796320 1.000000 0.959810
0.927947 1.000000 0.954418
1.000000 1.000000 0.949520
