assets/luts/mayotte_signature.cube
TITLE "teal_orange"
LUT_3D_SIZE 5
0.000000 0.008611 0.054811
0.210776 0.003009 0.045176
0.508084 0.000000 0.033693
0.805391 0.000000 0.022211
1.000000 0.000000 0.012576
0.000000 0.240704 0.022399
0.205823 0.235102 0.012764
0.503130 0.228426 0.001281
0.800438 0.221751 0.000000
1.000000 0.216149 0.000000
0.000000 0.517308 0.000000
0.199919 0.511707 0.000000
0.497227 0.505031 0.000000
0.794535 0.498355 0.000000
1.000000 0.493500 0.000000
0.000000 0.793965 0.000000
0.196222 0.790310 0.000000
0.495609 0.786019 0.000000
0.794997 0.781728 0.000000
1.000000 0.778128 0.000000
0.000000 1.000000 0.000000
0.197139 1.000000 0.000000
0.496526 1.000000 0.000000
0.795914 1.000000 0.000000
1.000000 1.000000 0.000000
0.000000 0.006709 0.302476
0.210276 0.001107 0.292842
0.507584 0.000000 0.281359
0.804891 0.000000 0.269876
1.000000 0.000000 0.260241
0.000000 0.238802 0.270064
0.205323 0.233200 0.260429
0.502630 0.226524 0.248947
0.799938 0.219848 0.237464
1.000000 0.214247 0.227829
0.000000 0.515406 0.231436
0.199419 0.509804 0.221801
0.496727 0.503128 0.210318
0.794035 0.496452 0.198836
1.000000 0.492278 0.188157
0.000000 0.792688 0.192009
0.196314 0.789087 0.181718
0.495702 0.784796 0.169454
0.795089 0.780505 0.157190
1.000000 0.776905 0.146900
0.000000 1.000000 0.157391
0.197231 1.000000 0.147100
0.496619 1.000000 0.134836
0.796006 1.000000 0.122572
1.000000 1.000000 0.112282
0.000000 0.004441 0.597639
0.209680 0.000000 0.588004
0.506988 0.000000 0.576522
0.804295 0.000000 0.565039
1.000000 0.000000 0.555404
0.000000 0.236535 0.565227
0.204727 0.230933 0.555592
0.502034 0.224257 0.544109
0.799342 0.217581 0.532627
1.000000 0.211979 0.522992
0.000000 0.513139 0.526599
0.198823 0.507537 0.516964
0.496131 0.500861 0.505481
0.794106 0.494421 0.493345
1.000000 0.490820 0.483054
0.000000 0.791231 0.486906
0.196425 0.787630 0.476616
0.495812 0.783339 0.464352
0.795200 0.779048 0.452088
1.000000 0.775448 0.441797
0.000000 1.000000 0.452289
0.197342 1.000000 0.441998
0.496729 1.000000 0.429734
0.796117 1.000000 0.417470
1.000000 1.000000 0.407179
0.000000 0.002174 0.892802
0.209084 0.000000 0.883167
0.506392 0.000000 0.871685
0.803699 0.000000 0.860202
1.000000 0.000000 0.850567
0.000000 0.234267 0.860390
0.204131 0.228666 0.850755
0.501438 0.221990 0.839272
0.798746 0.215314 0.827790
1.000000 0.209712 0.818155
0.000000 0.510872 0.821762
0.198227 0.505270 0.812127
0.495535 0.498594 0.800644
0.794217 0.492964 0.788242
1.000000 0.489363 0.777952
0.000000 0.789773 0.781804
0.196535 0.786173 0.771514
0.495922 0.781882 0.759250
0.795310 0.777591 0.746985
1.000000 0.773990 0.736695
0.000000 1.000000 0.747186
0.197452 1.000000 0.736896
0.496840 1.000000 0.724632
0.796227 1.000000 0.712368
1.000000 1.000000 0.702077
0.000000 0.000272 1.000000
0.208584 0.000000 1.000000
0.505892 0.000000 1.000000
0.803199 0.000000 1.000000
1.000000 0.000000 1.000000
0.000000 0.232365 1.000000
0.203631 0.226763 1.000000
0.500938 0.220087 1.000000
0.798246 0.213411 1.000000
1.000000 0.207810 1.000000
0.000000 0.508969 1.000000
0.197727 0.503368 1.000000
0.495035 0.496692 1.000000
0.794309 0.491741 1.000000
1.000000 0.488140 1.000000
0.000000 0.788551 1.000000
0.196628 0.784950 1.000000
0.496015 0.780659 1.000000
0.795402 0.776368 0.994428
1.000000 0.772768 0.984138
0.000000 1.000000 0.994629
0.197545 1.000000 0.984338
0.496932 1.000000 0.972074
0.796320 1.000000 0.959810
1.000000 1.000000 0.949520
