assets/luts/mayotte_signature.cube
TITLE "teal_orange"
LUT_3D_SIZE 33
0.000000 0.008611 0.054811
0.000000 0.007969 0.053708
0.019192 0.007311 0.052575
0.049254 0.006636 0.051414
0.080063 0.005944 0.050224
0.111620 0.005236 0.049006
0.143925 0.004510 0.047758
0.176976 0.003768 0.046481
0.210776 0.003009 0.045176
0.245323 0.002234 0.043842
0.280618 0.001441 0.042479
0.316660 0.000632 0.041087
0.353450 0.000000 0.039666
0.390987 0.000000 0.038216
0.429272 0.000000 0.036737
0.468304 0.000000 0.035230
0.508084 0.000000 0.033693
0.547864 0.000000 0.032157
0.586896 0.000000 0.030650
0.625181 0.000000 0.029171
0.662718 0.000000 0.027721
0.699508 0.000000 0.026300
0.735550 0.000000 0.024908
0.770844 0.000000 0.023545
0.805391 0.000000 0.022211
0.839191 0.000000 0.020905
0.872243 0.000000 0.019629
0.904547 0.000000 0.018381
0.936104 0.000000 0.017162
0.966914 0.000000 0.015972
0.996975 0.000000 0.014811
1.000000 0.000000 0.013679
1.000000 0.000000 0.012576
0.000000 0.035188 0.051099
0.000000 0.034547 0.049996
0.018625 0.033889 0.048864
0.048687 0.033214 0.047703
0.079496 0.032522 0.046513
0.111053 0.031813 0.045294
0.143357 0.031088 0.044046
0.176409 0.030346 0.042770
0.210209 0.029587 0.041464
0.244756 0.028811 0.040130
0.280050 0.028018 0.038767
0.316093 0.027209 0.037375
0.352882 0.026383 0.035954
0.390420 0.025540 0.034504
0.428704 0.024680 0.033026
0.467737 0.023804 0.031518
0.507516 0.022911 0.029982
0.547296 0.022018 0.028445
0.586329 0.021141 0.026938
0.624613 0.020281 0.025459
0.662151 0.019439 0.024010
0.698940 0.018612 0.022589
0.734983 0.017803 0.021197
0.770277 0.017011 0.019833
0.804824 0.016235 0.018499
0.838624 0.015476 0.017194
0.871676 0.014734 0.015917
0.903980 0.014008 0.014670
0.935537 0.013300 0.013451
0.966346 0.012608 0.012261
0.996408 0.011933 0.011100
1.000000 0.011275 0.009968
1.000000 0.010633 0.008864
0.000000 0.062461 0.047291
0.000000 0.061820 0.046187
0.018043 0.061162 0.045055
0.048105 0.060487 0.043894
0.078914 0.059795 0.042704
0.110471 0.059086 0.041485
0.142775 0.058361 0.040238
0.175827 0.057619 0.038961
0.209627 0.056860 0.037656
0.244174 0.056084 0.036321
0.279468 0.055291 0.034958
0.315511 0.054482 0.033566
0.352300 0.053656 0.032145
0.389837 0.052813 0.030696
0.428122 0.051953 0.029217
0.467155 0.051077 0.027709
0.506934 0.050184 0.026173
0.546714 0.049290 0.024637
0.585747 0.048414 0.023129
0.624031 0.047554 0.021651
0.661569 0.046711 0.020201
0.698358 0.045885 0.018780
0.734400 0.045076 0.017388
0.769695 0.044283 0.016025
0.804242 0.043508 0.014690
0.838042 0.042749 0.013385
0.871094 0.042007 0.012108
0.903398 0.041281 0.010861
0.934955 0.040573 0.009642
0.965764 0.039881 0.008452
0.995826 0.039206 0.007291
1.000000 0.038548 0.006159
1.000000 0.037906 0.005056
0.000000 0.090430 0.043385
0.000000 0.089788 0.042281
0.017446 0.089130 0.041149
0.047508 0.088455 0.039988
0.078317 0.087763 0.038798
0.109874 0.087055 0.037580
0.142178 0.086329 0.036332
0.175230 0.085587 0.035055
0.209030 0.084828 0.033750
0.243577 0.084052 0.032416
0.278872 0.083260 0.031052
0.314914 0.082450 0.029660
0.351703 0.081624 0.028240
0.389241 0.080781 0.026790
0.427525 0.079922 0.025311
0.466558 0.079045 0.023804
0.506338 0.078152 0.022267
0.546117 0.077259 0.020731
0.585150 0.076382 0.019223
0.623434 0.075523 0.017745
0.660972 0.074680 0.016295
0.697761 0.073854 0.014874
0.733804 0.073044 0.013482
0.769098 0.072252 0.012119
0.803645 0.071476 0.010785
0.837445 0.070717 0.009479
0.870497 0.069975 0.008203
0.902801 0.069250 0.006955
0.934358 0.068541 0.005736
0.965167 0.067849 0.004546
0.995229 0.067174 0.003385
1.000000 0.066516 0.002253
1.000000 0.065875 0.001150
0.000000 0.119094 0.039382
0.000000 0.118452 0.038278
0.016834 0.117794 0.037146
0.046896 0.117119 0.035985
0.077705 0.116427 0.034795
0.109262 0.115718 0.033577
0.141567 0.114993 0.032329
0.174619 0.114251 0.031052
0.208418 0.113492 0.029747
0.242965 0.112716 0.028413
0.278260 0.111924 0.027049
0.314302 0.111114 0.025657
0.351092 0.110288 0.024237
0.388629 0.109445 0.022787
0.426914 0.108586 0.021308
0.465946 0.107709 0.019801
0.505726 0.106816 0.018264
0.545506 0.105923 0.016728
0.584538 0.105046 0.015220
0.622823 0.104187 0.013742
0.660360 0.103344 0.012292
0.697150 0.102518 0.010871
0.733192 0.101708 0.009479
0.768486 0.100916 0.008116
0.803033 0.100140 0.006782
0.836833 0.099381 0.005476
0.869885 0.098639 0.004200
0.902189 0.097914 0.002952
0.933746 0.097205 0.001733
0.964556 0.096513 0.000543
0.994618 0.095838 0.000000
1.000000 0.095180 0.000000
1.000000 0.094538 0.000000
0.000000 0.148453 0.035282
0.000000 0.147812 0.034178
0.016207 0.147153 0.033046
0.046269 0.146478 0.031885
0.077079 0.145786 0.030695
0.108636 0.145078 0.029476
0.140940 0.144352 0.028229
0.173992 0.143610 0.026952
0.207792 0.142851 0.025647
0.242339 0.142076 0.024313
0.277633 0.141283 0.022949
0.313675 0.140474 0.021557
0.350465 0.139648 0.020136
0.388002 0.138805 0.018687
0.426287 0.137945 0.017208
0.465319 0.137069 0.015701
0.505099 0.136175 0.014164
0.544879 0.135282 0.012628
0.583911 0.134406 0.011120
0.622196 0.133546 0.009642
0.659733 0.132703 0.008192
0.696523 0.131877 0.006771
0.732565 0.131068 0.005379
0.767860 0.130275 0.004016
0.802407 0.129499 0.002682
0.836206 0.128740 0.001376
0.869258 0.127998 0.000100
0.901563 0.127273 0.000000
0.933120 0.126564 0.000000
0.963929 0.125873 0.000000
0.993991 0.125197 0.000000
1.000000 0.124539 0.000000
1.000000 0.123898 0.000000
0.000000 0.178508 0.031084
0.000000 0.177866 0.029981
0.015566 0.177208 0.028849
0.045628 0.176533 0.027688
0.076437 0.175841 0.026498
0.107994 0.175133 0.025279
0.140299 0.174407 0.024032
0.173351 0.173665 0.022755
0.207150 0.172906 0.021450
0.241697 0.172130 0.020115
0.276992 0.171338 0.018752
0.313034 0.170529 0.017360
0.349824 0.169703 0.015939
0.387361 0.168860 0.014489
0.425646 0.168000 0.013011
0.464678 0.167124 0.011503
0.504458 0.166230 0.009967
0.544238 0.165337 0.008431
0.583270 0.164461 0.006923
0.621555 0.163601 0.005444
0.659092 0.162758 0.003995
0.695882 0.161932 0.002574
0.731924 0.161123 0.001182
0.767218 0.160330 0.000000
0.801765 0.159554 0.000000
0.835565 0.158795 0.000000
0.868617 0.158053 0.000000
0.900921 0.157328 0.000000
0.932478 0.156619 0.000000
0.963288 0.155927 0.000000
0.993350 0.155252 0.000000
1.000000 0.154594 0.000000
1.000000 0.153953 0.000000
0.000000 0.209258 0.026790
0.000000 0.208617 0.025687
0.014910 0.207959 0.024555
0.044972 0.207284 0.023394
0.075781 0.206592 0.022204
0.107338 0.205883 0.020985
0.139642 0.205158 0.019737
0.172694 0.204416 0.018461
0.206494 0.203657 0.017155
0.241041 0.202881 0.015821
0.276335 0.202088 0.014458
0.312378 0.201279 0.013066
0.349167 0.200453 0.011645
0.386705 0.199610 0.010195
0.424989 0.198750 0.008716
0.464022 0.197874 0.007209
0.503801 0.196981 0.005673
0.543581 0.196087 0.004136
0.582614 0.195211 0.002629
0.620898 0.194351 0.001150
0.658436 0.193508 0.000000
0.695225 0.192682 0.000000
0.731268 0.191873 0.000000
0.766562 0.191080 0.000000
0.801109 0.190305 0.000000
0.834909 0.189546 0.000000
0.867961 0.188804 0.000000
0.900265 0.188078 0.000000
0.931822 0.187370 0.000000
0.962631 0.186678 0.000000
0.992693 0.186003 0.000000
1.000000 0.185344 0.000000
1.000000 0.184703 0.000000
0.000000 0.240704 0.022399
0.000000 0.240063 0.021295
0.014239 0.239404 0.020163
0.044300 0.238729 0.019002
0.075110 0.238038 0.017812
0.106667 0.237329 0.016593
0.138971 0.236604 0.015346
0.172023 0.235861 0.014069
0.205823 0.235102 0.012764
0.240370 0.234327 0.011429
0.275664 0.233534 0.010066
0.311707 0.232725 0.008674
0.348496 0.231899 0.007253
0.386033 0.231056 0.005804
0.424318 0.230196 0.004325
0.463351 0.229320 0.002817
0.503130 0.228426 0.001281
0.542910 0.227533 0.000000
0.581943 0.226657 0.000000
0.620227 0.225797 0.000000
0.657765 0.224954 0.000000
0.694554 0.224128 0.000000
0.730596 0.223319 0.000000
0.765891 0.222526 0.000000
0.800438 0.221751 0.000000
0.834238 0.220992 0.000000
0.867290 0.220249 0.000000
0.899594 0.219524 0.000000
0.931151 0.218815 0.000000
0.961960 0.218124 0.000000
0.992022 0.217449 0.000000
1.000000 0.216790 0.000000
1.000000 0.216149 0.000000
0.000000 0.272845 0.017910
0.000000 0.272204 0.016807
0.013553 0.271546 0.015675
0.043614 0.270871 0.014513
0.074424 0.270179 0.013324
0.105981 0.269470 0.012105
0.138285 0.268745 0.010857
0.171337 0.268003 0.009581
0.205137 0.267244 0.008275
0.239684 0.266468 0.006941
0.274978 0.265675 0.005578
0.311021 0.264866 0.004186
0.347810 0.264040 0.002765
0.385347 0.263197 0.001315
0.423632 0.262337 0.000000
0.462665 0.261461 0.000000
0.502444 0.260568 0.000000
0.542224 0.259675 0.000000
0.581257 0.258798 0.000000
0.619541 0.257938 0.000000
0.657079 0.257096 0.000000
0.693868 0.256269 0.000000
0.729910 0.255460 0.000000
0.765205 0.254668 0.000000
0.799752 0.253892 0.000000
0.833552 0.253133 0.000000
0.866604 0.252391 0.000000
0.898908 0.251665 0.000000
0.930465 0.250957 0.000000
0.961274 0.250265 0.000000
0.991336 0.249590 0.000000
1.000000 0.248932 0.000000
1.000000 0.248290 0.000000
0.000000 0.305682 0.013324
0.000000 0.305041 0.012221
0.012852 0.304383 0.011089
0.042914 0.303707 0.009928
0.073723 0.303016 0.008738
0.105280 0.302307 0.007519
0.137584 0.301582 0.006271
0.170636 0.300840 0.004995
0.204436 0.300081 0.003689
0.238983 0.299305 0.002355
0.274278 0.298512 0.000992
0.310320 0.297703 0.000000
0.347109 0.296877 0.000000
0.384647 0.296034 0.000000
0.422931 0.295174 0.000000
0.461964 0.294298 0.000000
0.501744 0.293405 0.000000
0.541523 0.292511 0.000000
0.580556 0.291635 0.000000
0.618841 0.290775 0.000000
0.656378 0.289932 0.000000
0.693167 0.289106 0.000000
0.729210 0.288297 0.000000
0.764504 0.287504 0.000000
0.799051 0.286729 0.000000
0.832851 0.285970 0.000000
0.865903 0.285228 0.000000
0.898207 0.284502 0.000000
0.929764 0.283794 0.000000
0.960574 0.283102 0.000000
0.990635 0.282427 0.000000
1.000000 0.281768 0.000000
1.000000 0.281127 0.000000
0.000000 0.339215 0.008641
0.000000 0.338573 0.007538
0.012136 0.337915 0.006406
0.042198 0.337240 0.005245
0.073007 0.336548 0.004055
0.104564 0.335839 0.002836
0.136869 0.335114 0.001588
0.169921 0.334372 0.000312
0.203720 0.333613 0.000000
0.238267 0.332837 0.000000
0.273562 0.332045 0.000000
0.309604 0.331235 0.000000
0.346394 0.330409 0.000000
0.383931 0.329566 0.000000
0.422216 0.328707 0.000000
0.461248 0.327830 0.000000
0.501028 0.326937 0.000000
0.540808 0.326044 0.000000
0.579840 0.325167 0.000000
0.618125 0.324308 0.000000
0.655662 0.323465 0.000000
0.692452 0.322639 0.000000
0.728494 0.321829 0.000000
0.763789 0.321037 0.000000
0.798336 0.320261 0.000000
0.832135 0.319502 0.000000
0.865187 0.318760 0.000000
0.897492 0.318034 0.000000
0.929049 0.317326 0.000000
0.959858 0.316634 0.000000
0.989920 0.315959 0.000000
1.000000 0.315301 0.000000
1.000000 0.314659 0.000000
0.000000 0.373442 0.003861
0.000000 0.372801 0.002758
0.011406 0.372143 0.001626
0.041468 0.371468 0.000465
0.072277 0.370776 0.000000
0.103834 0.370067 0.000000
0.136138 0.369342 0.000000
0.169190 0.368600 0.000000
0.202990 0.367841 0.000000
0.237537 0.367065 0.000000
0.272831 0.366272 0.000000
0.308874 0.365463 0.000000
0.345663 0.364637 0.000000
0.383201 0.363794 0.000000
0.421485 0.362934 0.000000
0.460518 0.362058 0.000000
0.500297 0.361165 0.000000
0.540077 0.360271 0.000000
0.579110 0.359395 0.000000
0.617394 0.358535 0.000000
0.654932 0.357692 0.000000
0.691721 0.356866 0.000000
0.727763 0.356057 0.000000
0.763058 0.355264 0.000000
0.797605 0.354489 0.000000
0.831405 0.353730 0.000000
0.864457 0.352988 0.000000
0.896761 0.352262 0.000000
0.928318 0.351554 0.000000
0.959127 0.350862 0.000000
0.989189 0.350187 0.000000
1.000000 0.349529 0.000000
1.000000 0.348887 0.000000
0.000000 0.408366 0.000000
0.000000 0.407724 0.000000
0.010660 0.407066 0.000000
0.040722 0.406391 0.000000
0.071532 0.405699 0.000000
0.103088 0.404990 0.000000
0.135393 0.404265 0.000000
0.168445 0.403523 0.000000
0.202244 0.402764 0.000000
0.236792 0.401988 0.000000
0.272086 0.401196 0.000000
0.308128 0.400386 0.000000
0.344918 0.399560 0.000000
0.382455 0.398717 0.000000
0.420740 0.397858 0.000000
0.459772 0.396981 0.000000
0.499552 0.396088 0.000000
0.539332 0.395195 0.000000
0.578364 0.394318 0.000000
0.616649 0.393459 0.000000
0.654186 0.392616 0.000000
0.690976 0.391790 0.000000
0.727018 0.390980 0.000000
0.762313 0.390188 0.000000
0.796860 0.389412 0.000000
0.830659 0.388653 0.000000
0.863711 0.387911 0.000000
0.896016 0.387185 0.000000
0.927573 0.386477 0.000000
0.958382 0.385785 0.000000
0.988444 0.385110 0.000000
1.000000 0.384452 0.000000
1.000000 0.383810 0.000000
0.000000 0.443984 0.000000
0.000000 0.443343 0.000000
0.009900 0.442685 0.000000
0.039962 0.442010 0.000000
0.070771 0.441318 0.000000
0.102328 0.440609 0.000000
0.134633 0.439884 0.000000
0.167685 0.439142 0.000000
0.201484 0.438383 0.000000
0.236031 0.437607 0.000000
0.271326 0.436814 0.000000
0.307368 0.436005 0.000000
0.344158 0.435179 0.000000
0.381695 0.434336 0.000000
0.419980 0.433476 0.000000
0.459012 0.432600 0.000000
0.498792 0.431707 0.000000
0.538572 0.430813 0.000000
0.577604 0.429937 0.000000
0.615889 0.429077 0.000000
0.653426 0.428234 0.000000
0.690216 0.427408 0.000000
0.726258 0.426599 0.000000
0.761553 0.425806 0.000000
0.796100 0.425031 0.000000
0.829899 0.424272 0.000000
0.862951 0.423530 0.000000
0.895256 0.422804 0.000000
0.926813 0.422096 0.000000
0.957622 0.421404 0.000000
0.987684 0.420729 0.000000
1.000000 0.420071 0.000000
1.000000 0.419429 0.000000
0.000000 0.480299 0.000000
0.000000 0.479657 0.000000
0.009125 0.478999 0.000000
0.039187 0.478324 0.000000
0.069996 0.477632 0.000000
0.101553 0.476923 0.000000
0.133858 0.476198 0.000000
0.166910 0.475456 0.000000
0.200709 0.474697 0.000000
0.235256 0.473921 0.000000
0.270551 0.473129 0.000000
0.306593 0.472319 0.000000
0.343383 0.471493 0.000000
0.380920 0.470650 0.000000
0.419205 0.469791 0.000000
0.458237 0.468914 0.000000
0.498017 0.468021 0.000000
0.537797 0.467128 0.000000
0.576829 0.466251 0.000000
0.615114 0.465392 0.000000
0.652651 0.464549 0.000000
0.689441 0.463723 0.000000
0.725483 0.462913 0.000000
0.760778 0.462121 0.000000
0.795325 0.461345 0.000000
0.829124 0.460586 0.000000
0.862176 0.459844 0.000000
0.894481 0.459118 0.000000
0.926037 0.458410 0.000000
0.956847 0.457718 0.000000
0.986909 0.457043 0.000000
1.000000 0.456385 0.000000
1.000000 0.455743 0.000000
0.000000 0.517308 0.000000
0.000000 0.516667 0.000000
0.008335 0.516009 0.000000
0.038397 0.515334 0.000000
0.069207 0.514642 0.000000
0.100763 0.513933 0.000000
0.133068 0.513208 0.000000
0.166120 0.512466 0.000000
0.199919 0.511707 0.000000
0.234466 0.510931 0.000000
0.269761 0.510138 0.000000
0.305803 0.509329 0.000000
0.342593 0.508503 0.000000
0.380130 0.507660 0.000000
0.418415 0.506800 0.000000
0.457447 0.505924 0.000000
0.497227 0.505031 0.000000
0.537007 0.504137 0.000000
0.576039 0.503261 0.000000
0.614324 0.502401 0.000000
0.651861 0.501558 0.000000
0.688651 0.500732 0.000000
0.724693 0.499923 0.000000
0.759988 0.499130 0.000000
0.794535 0.498355 0.000000
0.828334 0.497596 0.000000
0.861386 0.496854 0.000000
0.893691 0.496128 0.000000
0.925248 0.495420 0.000000
0.956385 0.494808 0.000000
0.986828 0.494336 0.000000
1.000000 0.493913 0.000000
1.000000 0.493500 0.000000
0.000000 0.554318 0.000000
0.000000 0.553677 0.000000
0.007545 0.553018 0.000000
0.037607 0.552343 0.000000
0.068417 0.551651 0.000000
0.099974 0.550943 0.000000
0.132278 0.550217 0.000000
0.165330 0.549475 0.000000
0.199130 0.548716 0.000000
0.233677 0.547941 0.000000
0.268971 0.547148 0.000000
0.305013 0.546339 0.000000
0.341803 0.545513 0.000000
0.379340 0.544670 0.000000
0.417625 0.543810 0.000000
0.456657 0.542934 0.000000
0.496437 0.542040 0.000000
0.536217 0.541147 0.000000
0.575249 0.540271 0.000000
0.613534 0.539411 0.000000
0.651071 0.538568 0.000000
0.687861 0.537742 0.000000
0.723903 0.536933 0.000000
0.759198 0.536140 0.000000
0.793745 0.535364 0.000000
0.827997 0.534716 0.000000
0.861369 0.534219 0.000000
0.893899 0.533753 0.000000
0.925677 0.533298 0.000000
0.956702 0.532853 0.000000
0.986974 0.532419 0.000000
1.000000 0.531996 0.000000
1.000000 0.531584 0.000000
0.000000 0.590632 0.000000
0.000000 0.589991 0.000000
0.006770 0.589332 0.000000
0.036832 0.588657 0.000000
0.067642 0.587966 0.000000
0.099199 0.587257 0.000000
0.131503 0.586532 0.000000
0.164555 0.585789 0.000000
0.198355 0.585031 0.000000
0.232902 0.584255 0.000000
0.268196 0.583462 0.000000
0.304238 0.582653 0.000000
0.341028 0.581827 0.000000
0.378565 0.580984 0.000000
0.416850 0.580124 0.000000
0.455882 0.579248 0.000000
0.495662 0.578355 0.000000
0.535442 0.577461 0.000000
0.574474 0.576585 0.000000
0.612759 0.575725 0.000000
0.650296 0.574882 0.000000
0.687367 0.574125 0.000000
0.723863 0.573560 0.000000
0.759404 0.573050 0.000000
0.794193 0.572552 0.000000
0.828229 0.572064 0.000000
0.861512 0.571587 0.000000
0.894043 0.571121 0.000000
0.925820 0.570665 0.000000
0.956845 0.570220 0.000000
0.987117 0.569787 0.000000
1.000000 0.569363 0.000000
1.000000 0.568951 0.000000
0.000000 0.626251 0.000000
0.000000 0.625609 0.000000
0.006010 0.624951 0.000000
0.036072 0.624276 0.000000
0.066881 0.623584 0.000000
0.098438 0.622876 0.000000
0.130743 0.622150 0.000000
0.163795 0.621408 0.000000
0.197594 0.620649 0.000000
0.232141 0.619874 0.000000
0.267436 0.619081 0.000000
0.303478 0.618272 0.000000
0.340268 0.617446 0.000000
0.377805 0.616603 0.000000
0.416090 0.615743 0.000000
0.455122 0.614867 0.000000
0.494902 0.613973 0.000000
0.534682 0.613080 0.000000
0.574310 0.612357 0.000000
0.612863 0.611805 0.000000
0.650662 0.611263 0.000000
0.687709 0.610732 0.000000
0.724004 0.610212 0.000000
0.759545 0.609702 0.000000
0.794334 0.609204 0.000000
0.828370 0.608716 0.000000
0.861653 0.608239 0.000000
0.894184 0.607772 0.000000
0.925961 0.607317 0.000000
0.956986 0.606872 0.000000
0.987258 0.606438 0.000000
1.000000 0.606015 0.000000
1.000000 0.605603 0.000000
0.000000 0.661174 0.000000
0.000000 0.660533 0.000000
0.005265 0.659875 0.000000
0.035327 0.659199 0.000000
0.066136 0.658508 0.000000
0.097693 0.657799 0.000000
0.129997 0.657074 0.000000
0.163049 0.656332 0.000000
0.196849 0.655573 0.000000
0.231396 0.654797 0.000000
0.266691 0.654004 0.000000
0.302733 0.653195 0.000000
0.339523 0.652369 0.000000
0.377060 0.651526 0.000000
0.415345 0.650666 0.000000
0.455026 0.650005 0.000000
0.495085 0.649431 0.000000
0.535143 0.648857 0.000000
0.574448 0.648293 0.000000
0.613001 0.647741 0.000000
0.650800 0.647199 0.000000
0.687847 0.646668 0.000000
0.724142 0.646148 0.000000
0.759683 0.645638 0.000000
0.794472 0.645140 0.000000
0.828508 0.644652 0.000000
0.861791 0.644175 0.000000
0.894322 0.643709 0.000000
0.926099 0.643253 0.000000
0.957124 0.642809 0.000000
0.987396 0.642375 0.000000
1.000000 0.641952 0.000000
1.000000 0.641539 0.000000
0.000000 0.695402 0.000000
0.000000 0.694761 0.000000
0.004534 0.694102 0.000000
0.034596 0.693427 0.000000
0.065406 0.692735 0.000000
0.096963 0.692027 0.000000
0.129267 0.691301 0.000000
0.162319 0.690559 0.000000
0.196119 0.689800 0.000000
0.230666 0.689025 0.000000
0.265960 0.688232 0.000000
0.302201 0.687471 0.000000
0.339504 0.686883 0.000000
0.377304 0.686341 0.000000
0.415856 0.685789 0.000000
0.455162 0.685226 0.000000
0.495220 0.684651 0.000000
0.535278 0.684077 0.000000
0.574583 0.683514 0.000000
0.613136 0.682961 0.000000
0.650936 0.682420 0.000000
0.687983 0.681889 0.000000
0.724277 0.681368 0.000000
0.759819 0.680859 0.000000
0.794607 0.680360 0.000000
0.828643 0.679873 0.000000
0.861926 0.679396 0.000000
0.894457 0.678929 0.000000
0.926234 0.678474 0.000000
0.957259 0.678029 0.000000
0.987531 0.677595 0.000000
1.000000 0.677172 0.000000
1.000000 0.676760 0.000000
0.000000 0.728934 0.000000
0.000000 0.728293 0.000000
0.003819 0.727635 0.000000
0.033881 0.726960 0.000000
0.064690 0.726268 0.000000
0.096247 0.725559 0.000000
0.128551 0.724834 0.000000
0.161603 0.724092 0.000000
0.195917 0.723458 0.000000
0.230754 0.722949 0.000000
0.266295 0.722439 0.000000
0.302589 0.721919 0.000000
0.339636 0.721388 0.000000
0.377436 0.720846 0.000000
0.415989 0.720294 0.000000
0.455294 0.719730 0.000000
0.495352 0.719156 0.000000
0.535410 0.718582 0.000000
0.574716 0.718019 0.000000
0.613268 0.717466 0.000000
0.651068 0.716924 0.000000
0.688115 0.716394 0.000000
0.724410 0.715873 0.000000
0.759951 0.715364 0.000000
0.794740 0.714865 0.000000
0.828776 0.714377 0.000000
0.862059 0.713900 0.000000
0.894589 0.713434 0.000000
0.926367 0.712979 0.000000
0.957392 0.712534 0.000000
0.987664 0.712100 0.000000
1.000000 0.711677 0.000000
1.000000 0.711265 0.000000
0.000000 0.761771 0.000000
0.000000 0.761130 0.000000
0.003118 0.760471 0.000000
0.033180 0.759796 0.000000
0.064257 0.759170 0.000000
0.096245 0.758668 0.000000
0.128775 0.758201 0.000000
0.162059 0.757724 0.000000
0.196095 0.757237 0.000000
0.230883 0.756738 0.000000
0.266425 0.756229 0.000000
0.302719 0.755708 0.000000
0.339766 0.755177 0.000000
0.377566 0.754636 0.000000
0.416119 0.754083 0.000000
0.455424 0.753520 0.000000
0.495482 0.752946 0.000000
0.535540 0.752371 0.000000
0.574846 0.751808 0.000000
0.613398 0.751256 0.000000
0.651198 0.750714 0.000000
0.688245 0.750183 0.000000
0.724539 0.749663 0.000000
0.760081 0.749153 0.000000
0.794870 0.748655 0.000000
0.828905 0.748167 0.000000
0.862189 0.747690 0.000000
0.894719 0.747223 0.000000
0.926497 0.746768 0.000000
0.957522 0.746323 0.000000
0.987794 0.745889 0.000000
1.000000 0.745466 0.000000
1.000000 0.745054 0.000000
0.000000 0.793965 0.000000
0.000000 0.793498 0.000000
0.003297 0.793075 0.000000
0.033570 0.792641 0.000000
0.064594 0.792197 0.000000
0.096372 0.791741 0.000000
0.128902 0.791275 0.000000
0.162186 0.790798 0.000000
0.196222 0.790310 0.000000
0.231010 0.789812 0.000000
0.266552 0.789302 0.000000
0.302846 0.788782 0.000000
0.339893 0.788251 0.000000
0.377693 0.787709 0.000000
0.416246 0.787157 0.000000
0.455551 0.786593 0.000000
0.495609 0.786019 0.000000
0.535667 0.785445 0.000000
0.574973 0.784882 0.000000
0.613525 0.784329 0.000000
0.651325 0.783787 0.000000
0.688372 0.783256 0.000000
0.724666 0.782736 0.000000
0.760208 0.782227 0.000000
0.794997 0.781728 0.000000
0.829033 0.781240 0.000000
0.862316 0.780763 0.000000
0.894846 0.780297 0.000000
0.926624 0.779842 0.000000
0.957649 0.779397 0.000000
0.987921 0.778963 0.000000
1.000000 0.778540 0.000000
1.000000 0.778128 0.000000
0.000000 0.826269 0.000000
0.000000 0.825856 0.000000
0.003422 0.825433 0.000000
0.033694 0.824999 0.000000
0.064719 0.824555 0.000000
0.096496 0.824099 0.000000
0.129027 0.823633 0.000000
0.162310 0.823156 0.000000
0.196346 0.822668 0.000000
0.231135 0.822170 0.000000
0.266676 0.821660 0.000000
0.302970 0.821140 0.000000
0.340017 0.820609 0.000000
0.377817 0.820067 0.000000
0.416370 0.819515 0.000000
0.455675 0.818951 0.000000
0.495733 0.818377 0.000000
0.535792 0.817803 0.000000
0.575097 0.817240 0.000000
0.613649 0.816687 0.000000
0.651449 0.816145 0.000000
0.688496 0.815614 0.000000
0.724791 0.815094 0.000000
0.760332 0.814585 0.000000
0.795121 0.814086 0.000000
0.829157 0.813598 0.000000
0.862440 0.813121 0.000000
0.894970 0.812655 0.000000
0.926748 0.812200 0.000000
0.957773 0.811755 0.000000
0.988045 0.811321 0.000000
1.000000 0.810898 0.000000
1.000000 0.810486 0.000000
0.000000 0.857911 0.000000
0.000000 0.857499 0.000000
0.003543 0.857076 0.000000
0.033815 0.856642 0.000000
0.064840 0.856197 0.000000
0.096618 0.855742 0.000000
0.129148 0.855275 0.000000
0.162431 0.854798 0.000000
0.196467 0.854310 0.000000
0.231256 0.853812 0.000000
0.266798 0.853302 0.000000
0.303092 0.852782 0.000000
0.340139 0.852251 0.000000
0.377939 0.851709 0.000000
0.416491 0.851157 0.000000
0.455797 0.850594 0.000000
0.495855 0.850019 0.000000
0.535913 0.849445 0.000000
0.575218 0.848882 0.000000
0.613771 0.848329 0.000000
0.651571 0.847788 0.000000
0.688618 0.847257 0.000000
0.724912 0.846736 0.000000
0.760454 0.846227 0.000000
0.795242 0.845728 0.000000
0.829278 0.845241 0.000000
0.862562 0.844764 0.000000
0.895092 0.844297 0.000000
0.926870 0.843842 0.000000
