assets/luts/tropical_punch.cube
TITLE "tropical_punch"
LUT_3D_SIZE 5
0.000000 0.000000 0.000000
0.246309 0.000000 0.000000
0.562992 0.000000 0.000000
0.879675 0.000000 0.000000
1.000000 0.000000 0.000000
0.000000 0.228718 0.000000
0.221277 0.221277 0.000000
0.537960 0.211710 0.000000
0.854643 0.202143 0.000000
1.000000 0.194702 0.000000
0.000000 0.522784 0.000000
0.189093 0.515343 0.000000
0.505776 0.505776 0.000000
0.822459 0.496209 0.000000
1.000000 0.488768 0.000000
0.000000 0.816850 0.000000
0.157264 0.809398 0.000000
0.477987 0.799709 0.000000
0.798709 0.790020 0.000000
1.000000 0.782484 0.000000
0.000000 1.000000 0.000000
0.142802 1.000000 0.000000
0.463524 1.000000 0.000000
0.784247 1.000000 0.000000
1.000000 1.000000 0.000000
0.000000 0.004183 0.265545
0.243782 0.000000 0.243782
0.560465 0.000000 0.234215
0.877148 0.000000 0.224648
1.000000 0.000000 0.217207
0.000000 0.226191 0.226191
0.218750 0.218750 0.218750
0.535433 0.209183 0.209183
0.852116 0.199616 0.199616
1.000000 0.192175 0.192175
0.000000 0.520257 0.194007
0.186566 0.512816 0.186566
0.503249 0.503249 0.176999
0.819932 0.493682 0.167432
1.000000 0.486241 0.159991
0.000000 0.814323 0.161823
0.155804 0.806839 0.154339
0.476527 0.797150 0.144650
0.797249 0.787461 0.134961
1.000000 0.779925 0.127425
0.000000 1.000000 0.136524
0.141342 1.000000 0.128988
0.462064 1.000000 0.119299
0.782787 1.000000 0.109610
1.000000 1.000000 0.102074
0.000000 0.009561 0.606961
0.239373 0.000000 0.585198
0.557216 0.000000 0.557216
0.873899 0.000000 0.547649
1.000000 0.000000 0.540208
0.000000 0.231569 0.567607
0.214341 0.224128 0.560166
0.532184 0.205934 0.532184
0.848867 0.196367 0.522617
1.000000 0.188926 0.515176
0.000000 0.517008 0.517008
0.183317 0.509567 0.509567
0.500000 0.500000 0.500000
0.816683 0.490433 0.490433
1.000000 0.482979 0.482979
0.000000 0.811074 0.484824
0.153927 0.803549 0.477299
0.474650 0.793860 0.467610
0.795372 0.784171 0.457921
1.000000 0.776635 0.450385
0.000000 1.000000 0.459483
0.139465 1.000000 0.451947
0.460187 1.000000 0.442258
0.780910 1.000000 0.432569
1.000000 1.000000 0.425033
0.000000 0.014939 0.948376
0.234963 0.000788 0.926613
0.552807 0.000000 0.898632
0.870650 0.000000 0.870650
1.000000 0.000000 0.863209
0.000000 0.236947 0.909022
0.209931 0.229506 0.901581
0.527775 0.211312 0.873600
0.845618 0.193118 0.845618
1.000000 0.185677 0.838177
0.000000 0.522386 0.858424
0.178908 0.514945 0.850983
0.495591 0.505378 0.841416
0.813434 0.487184 0.813434
1.000000 0.479689 0.805939
0.000000 0.807794 0.807794
0.152050 0.800258 0.800258
0.472772 0.790569 0.790569
0.793495 0.780880 0.780880
1.000000 0.773344 0.773344
0.000000 1.000000 0.782443
0.137587 1.000000 0.774907
0.458310 1.000000 0.765218
0.779033 1.000000 0.755529
1.000000 1.000000 0.747993
0.000000 0.019122 1.000000
0.231534 0.004971 1.000000
0.549377 0.000000 1.000000
0.867220 0.000000 1.000000
1.000000 0.000000 1.000000
0.000000 0.241130 1.000000
0.206502 0.233689 1.000000
0.524345 0.215495 1.000000
0.842188 0.197301 1.000000
1.000000 0.183150 1.000000
0.000000 0.526569 1.000000
0.175478 0.519128 1.000000
0.492161 0.509561 1.000000
0.810004 0.491367 1.000000
1.000000 0.477129 1.000000
0.000000 0.811945 1.000000
0.149687 0.804409 1.000000
0.470410 0.794720 1.000000
0.791133 0.785031 1.000000
1.000000 0.770785 1.000000
0.000000 1.000000 1.000000
0.136127 1.000000 1.000000
0.456850 1.000000 1.000000
0.777573 1.000000 1.000000
1.000000 0.999184 0.999184
