assets/luts/tropical_punch.cube
TITLE "tropical_punch"
LUT_3D_SIZE 33
0.000000 0.000000 0.000000
0.026940 0.000000 0.000000
0.054980 0.000000 0.000000
0.084119 0.000000 0.000000
0.114358 0.000000 0.000000
0.145696 0.000000 0.000000
0.178134 0.000000 0.000000
0.211672 0.000000 0.000000
0.246309 0.000000 0.000000
0.282046 0.000000 0.000000
0.318882 0.000000 0.000000
0.356818 0.000000 0.000000
0.395854 0.000000 0.000000
0.435989 0.000000 0.000000
0.477224 0.000000 0.000000
0.519558 0.000000 0.000000
0.562992 0.000000 0.000000
0.606426 0.000000 0.000000
0.648760 0.000000 0.000000
0.689995 0.000000 0.000000
0.730130 0.000000 0.000000
0.769166 0.000000 0.000000
0.807102 0.000000 0.000000
0.843938 0.000000 0.000000
0.879675 0.000000 0.000000
0.914312 0.000000 0.000000
0.947850 0.000000 0.000000
0.980288 0.000000 0.000000
1.000000 0.000000 0.000000
1.000000 0.000000 0.000000
1.000000 0.000000 0.000000
1.000000 0.000000 0.000000
1.000000 0.000000 0.000000
0.000000 0.025016 0.000000
0.024202 0.024202 0.000000
0.052242 0.023355 0.000000
0.081381 0.022475 0.000000
0.111620 0.021561 0.000000
0.142958 0.020615 0.000000
0.175396 0.019635 0.000000
0.208934 0.018621 0.000000
0.243571 0.017575 0.000000
0.279308 0.016495 0.000000
0.316144 0.015383 0.000000
0.354080 0.014237 0.000000
0.393116 0.013057 0.000000
0.433251 0.011845 0.000000
0.474486 0.010599 0.000000
0.516820 0.009320 0.000000
0.560254 0.008008 0.000000
0.603688 0.006696 0.000000
0.646022 0.005417 0.000000
0.687257 0.004171 0.000000
0.727392 0.002959 0.000000
0.766428 0.001780 0.000000
0.804364 0.000633 0.000000
0.841200 0.000000 0.000000
0.876937 0.000000 0.000000
0.911574 0.000000 0.000000
0.945112 0.000000 0.000000
0.977550 0.000000 0.000000
1.000000 0.000000 0.000000
1.000000 0.000000 0.000000
1.000000 0.000000 0.000000
1.000000 0.000000 0.000000
1.000000 0.000000 0.000000
0.000000 0.051053 0.000000
0.021353 0.050239 0.000000
0.049392 0.049392 0.000000
0.078531 0.048512 0.000000
0.108770 0.047598 0.000000
0.140109 0.046652 0.000000
0.172547 0.045672 0.000000
0.206084 0.044659 0.000000
0.240721 0.043612 0.000000
0.276458 0.042533 0.000000
0.313295 0.041420 0.000000
0.351231 0.040274 0.000000
0.390266 0.039094 0.000000
0.430401 0.037882 0.000000
0.471636 0.036636 0.000000
0.513971 0.035357 0.000000
0.557404 0.034045 0.000000
0.600838 0.032733 0.000000
0.643173 0.031454 0.000000
0.684408 0.030208 0.000000
0.724543 0.028996 0.000000
0.763578 0.027817 0.000000
0.801514 0.026671 0.000000
0.838351 0.025558 0.000000
0.874087 0.024478 0.000000
0.908725 0.023432 0.000000
0.942262 0.022419 0.000000
0.974700 0.021439 0.000000
1.000000 0.020492 0.000000
1.000000 0.019578 0.000000
1.000000 0.018698 0.000000
1.000000 0.017851 0.000000
1.000000 0.017037 0.000000
0.000000 0.078111 0.000000
0.018391 0.077297 0.000000
0.046431 0.076450 0.000000
0.075570 0.075570 0.000000
0.105809 0.074657 0.000000
0.137147 0.073710 0.000000
0.169585 0.072730 0.000000
0.203123 0.071717 0.000000
0.237760 0.070670 0.000000
0.273497 0.069591 0.000000
0.310333 0.068478 0.000000
0.348269 0.067332 0.000000
0.387305 0.066153 0.000000
0.427440 0.064940 0.000000
0.468675 0.063694 0.000000
0.511009 0.062415 0.000000
0.554443 0.061103 0.000000
0.597877 0.059791 0.000000
0.640211 0.058512 0.000000
0.681446 0.057267 0.000000
0.721581 0.056054 0.000000
0.760617 0.054875 0.000000
0.798553 0.053729 0.000000
0.835389 0.052616 0.000000
0.871126 0.051536 0.000000
0.905763 0.050490 0.000000
0.939301 0.049477 0.000000
0.971739 0.048497 0.000000
1.000000 0.047550 0.000000
1.000000 0.046637 0.000000
1.000000 0.045756 0.000000
1.000000 0.044909 0.000000
1.000000 0.044095 0.000000
0.000000 0.106190 0.000000
0.015318 0.105377 0.000000
0.043358 0.104530 0.000000
0.072497 0.103649 0.000000
0.102736 0.102736 0.000000
0.134074 0.101789 0.000000
0.166512 0.100809 0.000000
0.200050 0.099796 0.000000
0.234687 0.098750 0.000000
0.270424 0.097670 0.000000
0.307260 0.096557 0.000000
0.345196 0.095411 0.000000
0.384232 0.094232 0.000000
0.424367 0.093019 0.000000
0.465602 0.091774 0.000000
0.507936 0.090495 0.000000
0.551370 0.089183 0.000000
0.594804 0.087870 0.000000
0.637138 0.086591 0.000000
0.678373 0.085346 0.000000
0.718508 0.084133 0.000000
0.757544 0.082954 0.000000
0.795480 0.081808 0.000000
0.832316 0.080695 0.000000
0.868053 0.079616 0.000000
0.902690 0.078569 0.000000
0.936228 0.077556 0.000000
0.968666 0.076576 0.000000
1.000000 0.075629 0.000000
1.000000 0.074716 0.000000
1.000000 0.073835 0.000000
1.000000 0.072988 0.000000
1.000000 0.072175 0.000000
0.000000 0.135291 0.000000
0.012133 0.134477 0.000000
0.040173 0.133630 0.000000
0.069312 0.132750 0.000000
0.099551 0.131836 0.000000
0.130889 0.130889 0.000000
0.163327 0.129909 0.000000
0.196865 0.128896 0.000000
0.231502 0.127850 0.000000
0.267239 0.126770 0.000000
0.304075 0.125657 0.000000
0.342011 0.124511 0.000000
0.381047 0.123332 0.000000
0.421182 0.122120 0.000000
0.462417 0.120874 0.000000
0.504751 0.119595 0.000000
0.548185 0.118283 0.000000
0.591619 0.116971 0.000000
0.633953 0.115692 0.000000
0.675188 0.114446 0.000000
0.715323 0.113234 0.000000
0.754359 0.112054 0.000000
0.792295 0.110908 0.000000
0.829131 0.109795 0.000000
0.864868 0.108716 0.000000
0.899505 0.107669 0.000000
0.933043 0.106656 0.000000
0.965481 0.105676 0.000000
0.996819 0.104730 0.000000
1.000000 0.103816 0.000000
1.000000 0.102936 0.000000
1.000000 0.102089 0.000000
1.000000 0.101275 0.000000
0.000000 0.165412 0.000000
0.008837 0.164598 0.000000
0.036876 0.163751 0.000000
0.066015 0.162871 0.000000
0.096254 0.161957 0.000000
0.127593 0.161011 0.000000
0.160031 0.160031 0.000000
0.193568 0.159018 0.000000
0.228206 0.157971 0.000000
0.263942 0.156892 0.000000
0.300779 0.155779 0.000000
0.338715 0.154633 0.000000
0.377750 0.153453 0.000000
0.417885 0.152241 0.000000
0.459120 0.150995 0.000000
0.501455 0.149716 0.000000
0.544888 0.148404 0.000000
0.588322 0.147092 0.000000
0.630657 0.145813 0.000000
0.671892 0.144567 0.000000
0.712027 0.143355 0.000000
0.751062 0.142176 0.000000
0.788998 0.141030 0.000000
0.825835 0.139917 0.000000
0.861571 0.138837 0.000000
0.896209 0.137791 0.000000
0.929746 0.136778 0.000000
0.962184 0.135798 0.000000
0.993523 0.134851 0.000000
1.000000 0.133937 0.000000
1.000000 0.133057 0.000000
1.000000 0.132210 0.000000
1.000000 0.131396 0.000000
0.000000 0.196555 0.000000
0.005428 0.195741 0.000000
0.033468 0.194894 0.000000
0.062607 0.194013 0.000000
0.092846 0.193100 0.000000
0.124184 0.192153 0.000000
0.156622 0.191173 0.000000
0.190160 0.190160 0.000000
0.224797 0.189114 0.000000
0.260534 0.188034 0.000000
0.297370 0.186921 0.000000
0.335306 0.185775 0.000000
0.374342 0.184596 0.000000
0.414477 0.183383 0.000000
0.455712 0.182138 0.000000
0.498046 0.180859 0.000000
0.541480 0.179547 0.000000
0.584914 0.178234 0.000000
0.627248 0.176955 0.000000
0.668483 0.175710 0.000000
0.708618 0.174497 0.000000
0.747654 0.173318 0.000000
0.785590 0.172172 0.000000
0.822426 0.171059 0.000000
0.858163 0.169980 0.000000
0.892800 0.168933 0.000000
0.926338 0.167920 0.000000
0.958776 0.166940 0.000000
0.990114 0.165993 0.000000
1.000000 0.165080 0.000000
1.000000 0.164199 0.000000
1.000000 0.163352 0.000000
1.000000 0.162539 0.000000
0.000000 0.228718 0.000000
0.001908 0.227904 0.000000
0.029948 0.227057 0.000000
0.059087 0.226177 0.000000
0.089326 0.225263 0.000000
0.120664 0.224317 0.000000
0.153102 0.223337 0.000000
0.186640 0.222323 0.000000
0.221277 0.221277 0.000000
0.257014 0.220197 0.000000
0.293850 0.219085 0.000000
0.331786 0.217939 0.000000
0.370822 0.216759 0.000000
0.410957 0.215547 0.000000
0.452192 0.214301 0.000000
0.494526 0.213022 0.000000
0.537960 0.211710 0.000000
0.581394 0.210398 0.000000
0.623728 0.209119 0.000000
0.664963 0.207873 0.000000
0.705098 0.206661 0.000000
0.744134 0.205481 0.000000
0.782070 0.204335 0.000000
0.818906 0.203223 0.000000
0.854643 0.202143 0.000000
0.889280 0.201097 0.000000
0.922818 0.200083 0.000000
0.955256 0.199103 0.000000
0.986594 0.198157 0.000000
1.000000 0.197243 0.000000
1.000000 0.196363 0.000000
1.000000 0.195516 0.000000
1.000000 0.194702 0.000000
0.000000 0.261903 0.000000
0.000000 0.261089 0.000000
0.026316 0.260242 0.000000
0.055455 0.259361 0.000000
0.085694 0.258448 0.000000
0.117032 0.257501 0.000000
0.149470 0.256521 0.000000
0.183008 0.255508 0.000000
0.217645 0.254462 0.000000
0.253382 0.253382 0.000000
0.290218 0.252269 0.000000
0.328154 0.251123 0.000000
0.367190 0.249944 0.000000
0.407325 0.248731 0.000000
0.448560 0.247486 0.000000
0.490894 0.246207 0.000000
0.534328 0.244895 0.000000
0.577762 0.243582 0.000000
0.620096 0.242303 0.000000
0.661331 0.241058 0.000000
0.701466 0.239845 0.000000
0.740502 0.238666 0.000000
0.778438 0.237520 0.000000
0.815274 0.236407 0.000000
0.851011 0.235328 0.000000
0.885648 0.234281 0.000000
0.919186 0.233268 0.000000
0.951624 0.232288 0.000000
0.982962 0.231341 0.000000
1.000000 0.230428 0.000000
1.000000 0.229547 0.000000
1.000000 0.228700 0.000000
1.000000 0.227887 0.000000
0.000000 0.296108 0.000000
0.000000 0.295294 0.000000
0.022572 0.294447 0.000000
0.051711 0.293567 0.000000
0.081950 0.292653 0.000000
0.113289 0.291707 0.000000
0.145727 0.290727 0.000000
0.179264 0.289714 0.000000
0.213901 0.288667 0.000000
0.249638 0.287588 0.000000
0.286475 0.286475 0.000000
0.324411 0.285329 0.000000
0.363446 0.284149 0.000000
0.403581 0.282937 0.000000
0.444816 0.281691 0.000000
0.487151 0.280412 0.000000
0.530585 0.279100 0.000000
0.574018 0.277788 0.000000
0.616353 0.276509 0.000000
0.657588 0.275263 0.000000
0.697723 0.274051 0.000000
0.736758 0.272872 0.000000
0.774694 0.271726 0.000000
0.811531 0.270613 0.000000
0.847267 0.269533 0.000000
0.881905 0.268487 0.000000
0.915442 0.267474 0.000000
0.947880 0.266494 0.000000
0.979219 0.265547 0.000000
1.000000 0.264633 0.000000
1.000000 0.263753 0.000000
1.000000 0.262906 0.000000
1.000000 0.262092 0.000000
0.000000 0.331335 0.000000
0.000000 0.330521 0.000000
0.018717 0.329674 0.000000
0.047856 0.328794 0.000000
0.078095 0.327880 0.000000
0.109433 0.326933 0.000000
0.141871 0.325953 0.000000
0.175409 0.324940 0.000000
0.210046 0.323894 0.000000
0.245783 0.322814 0.000000
0.282619 0.321701 0.000000
0.320555 0.320555 0.000000
0.359591 0.319376 0.000000
0.399726 0.318164 0.000000
0.440961 0.316918 0.000000
0.483295 0.315639 0.000000
0.526729 0.314327 0.000000
0.570163 0.313015 0.000000
0.612497 0.311736 0.000000
0.653732 0.310490 0.000000
0.693867 0.309278 0.000000
0.732903 0.308098 0.000000
0.770839 0.306952 0.000000
0.807675 0.305839 0.000000
0.843412 0.304760 0.000000
0.878049 0.303713 0.000000
0.911587 0.302700 0.000000
0.944025 0.301720 0.000000
0.975363 0.300774 0.000000
1.000000 0.299860 0.000000
1.000000 0.298980 0.000000
1.000000 0.298133 0.000000
1.000000 0.297319 0.000000
0.000000 0.367582 0.000000
0.000000 0.366769 0.000000
0.014750 0.365922 0.000000
0.043889 0.365041 0.000000
0.074128 0.364128 0.000000
0.105466 0.363181 0.000000
0.137904 0.362201 0.000000
0.171442 0.361188 0.000000
0.206079 0.360142 0.000000
0.241816 0.359062 0.000000
0.278652 0.357949 0.000000
0.316588 0.356803 0.000000
0.355624 0.355624 0.000000
0.395759 0.354411 0.000000
0.436994 0.353166 0.000000
0.479328 0.351887 0.000000
0.522762 0.350575 0.000000
0.566196 0.349262 0.000000
0.608530 0.347983 0.000000
0.649765 0.346738 0.000000
0.689900 0.345525 0.000000
0.728936 0.344346 0.000000
0.766872 0.343200 0.000000
0.803708 0.342087 0.000000
0.839445 0.341008 0.000000
0.874082 0.339961 0.000000
0.907620 0.338948 0.000000
0.940058 0.337968 0.000000
0.971396 0.337021 0.000000
1.000000 0.336108 0.000000
1.000000 0.335227 0.000000
1.000000 0.334380 0.000000
1.000000 0.333566 0.000000
0.000000 0.404851 0.000000
0.000000 0.404037 0.000000
0.010671 0.403190 0.000000
0.039810 0.402310 0.000000
0.070049 0.401397 0.000000
0.101387 0.400450 0.000000
0.133825 0.399470 0.000000
0.167363 0.398457 0.000000
0.202000 0.397410 0.000000
0.237737 0.396331 0.000000
0.274573 0.395218 0.000000
0.312509 0.394072 0.000000
0.351545 0.392893 0.000000
0.391680 0.391680 0.000000
0.432915 0.390434 0.000000
0.475249 0.389155 0.000000
0.518683 0.387843 0.000000
0.562117 0.386531 0.000000
0.604451 0.385252 0.000000
0.645686 0.384007 0.000000
0.685821 0.382794 0.000000
0.724857 0.381615 0.000000
0.762793 0.380469 0.000000
0.799629 0.379356 0.000000
0.835366 0.378276 0.000000
0.870003 0.377230 0.000000
0.903541 0.376217 0.000000
0.935979 0.375237 0.000000
0.967317 0.374290 0.000000
0.997556 0.373377 0.000000
1.000000 0.372496 0.000000
1.000000 0.371649 0.000000
1.000000 0.370835 0.000000
0.000000 0.443141 0.000000
0.000000 0.442327 0.000000
0.006480 0.441480 0.000000
0.035619 0.440600 0.000000
0.065858 0.439686 0.000000
0.097197 0.438740 0.000000
0.129635 0.437760 0.000000
0.163172 0.436747 0.000000
0.197810 0.435700 0.000000
0.233546 0.434621 0.000000
0.270383 0.433508 0.000000
0.308319 0.432362 0.000000
0.347354 0.431182 0.000000
0.387489 0.429970 0.000000
0.428724 0.428724 0.000000
0.471059 0.427445 0.000000
0.514493 0.426133 0.000000
0.557926 0.424821 0.000000
0.600261 0.423542 0.000000
0.641496 0.422296 0.000000
0.681631 0.421084 0.000000
0.720666 0.419905 0.000000
0.758602 0.418759 0.000000
0.795439 0.417646 0.000000
0.831175 0.416566 0.000000
0.865813 0.415520 0.000000
0.899350 0.414507 0.000000
0.931788 0.413527 0.000000
0.963127 0.412580 0.000000
0.993366 0.411666 0.000000
1.000000 0.410786 0.000000
1.000000 0.409939 0.000000
1.000000 0.409125 0.000000
0.000000 0.482452 0.000000
0.000000 0.481638 0.000000
0.002178 0.480791 0.000000
0.031317 0.479911 0.000000
0.061556 0.478997 0.000000
0.092894 0.478051 0.000000
0.125332 0.477071 0.000000
0.158870 0.476057 0.000000
0.193507 0.475011 0.000000
0.229244 0.473931 0.000000
0.266080 0.472819 0.000000
0.304016 0.471673 0.000000
0.343052 0.470493 0.000000
0.383187 0.469281 0.000000
0.424422 0.468035 0.000000
0.466756 0.466756 0.000000
0.510190 0.465444 0.000000
0.553624 0.464132 0.000000
0.595958 0.462853 0.000000
0.637193 0.461607 0.000000
0.677328 0.460395 0.000000
0.716364 0.459216 0.000000
0.754300 0.458069 0.000000
0.791136 0.456957 0.000000
0.826873 0.455877 0.000000
0.861510 0.454831 0.000000
0.895048 0.453817 0.000000
0.927486 0.452838 0.000000
0.958824 0.451891 0.000000
0.989063 0.450977 0.000000
1.000000 0.450097 0.000000
1.000000 0.449250 0.000000
1.000000 0.448436 0.000000
0.000000 0.522784 0.000000
0.000000 0.521970 0.000000
0.000000 0.521123 0.000000
0.026903 0.520243 0.000000
0.057142 0.519329 0.000000
0.088480 0.518383 0.000000
0.120918 0.517403 0.000000
0.154456 0.516389 0.000000
0.189093 0.515343 0.000000
0.224830 0.514263 0.000000
0.261666 0.513151 0.000000
0.299602 0.512005 0.000000
0.338638 0.510825 0.000000
0.378773 0.509613 0.000000
0.420008 0.508367 0.000000
0.462342 0.507088 0.000000
0.505776 0.505776 0.000000
0.549210 0.504464 0.000000
0.591544 0.503185 0.000000
0.632779 0.501939 0.000000
0.672914 0.500727 0.000000
0.711950 0.499547 0.000000
0.749886 0.498401 0.000000
0.786722 0.497289 0.000000
0.822459 0.496209 0.000000
0.857096 0.495163 0.000000
0.890634 0.494149 0.000000
0.923072 0.493169 0.000000
0.954410 0.492223 0.000000
0.984649 0.491309 0.000000
1.000000 0.490429 0.000000
1.000000 0.489582 0.000000
1.000000 0.488768 0.000000
0.000000 0.563116 0.000000
0.000000 0.562302 0.000000
0.000000 0.561455 0.000000
0.022489 0.560575 0.000000
0.052728 0.559661 0.000000
0.084066 0.558714 0.000000
0.116504 0.557735 0.000000
0.150042 0.556721 0.000000
0.184679 0.555675 0.000000
0.220416 0.554595 0.000000
0.257252 0.553483 0.000000
0.295188 0.552336 0.000000
0.334224 0.551157 0.000000
0.374359 0.549945 0.000000
0.415594 0.548699 0.000000
0.457928 0.547420 0.000000
0.501362 0.546108 0.000000
0.544796 0.544796 0.000000
0.587130 0.543517 0.000000
0.628365 0.542271 0.000000
0.668500 0.541059 0.000000
0.707536 0.539879 0.000000
0.745472 0.538733 0.000000
0.782308 0.537621 0.000000
0.818045 0.536541 0.000000
0.852682 0.535495 0.000000
0.886220 0.534481 0.000000
0.918658 0.533501 0.000000
0.949996 0.532555 0.000000
0.980235 0.531641 0.000000
1.000000 0.530761 0.000000
1.000000 0.529914 0.000000
1.000000 0.529100 0.000000
0.000000 0.602427 0.000000
0.000000 0.601613 0.000000
0.000000 0.600766 0.000000
0.018186 0.599886 0.000000
0.048425 0.598972 0.000000
0.079764 0.598025 0.000000
0.112202 0.597045 0.000000
0.145739 0.596032 0.000000
0.180377 0.594986 0.000000
0.216113 0.593906 0.000000
0.252950 0.592793 0.000000
0.290886 0.591647 0.000000
0.329921 0.590468 0.000000
0.370056 0.589256 0.000000
0.411291 0.588010 0.000000
0.453626 0.586731 0.000000
0.497059 0.585419 0.000000
0.540493 0.584107 0.000000
0.582828 0.582828 0.000000
0.624063 0.581582 0.000000
0.664198 0.580370 0.000000
0.703233 0.579190 0.000000
0.741169 0.578044 0.000000
0.778006 0.576931 0.000000
0.813743 0.575852 0.000000
0.848380 0.574805 0.000000
0.881917 0.573792 0.000000
0.914355 0.572812 0.000000
0.945902 0.571859 0.000000
0.976527 0.570934 0.000000
1.000000 0.570043 0.000000
1.000000 0.569185 0.000000
1.000000 0.568361 0.000000
0.000000 0.640717 0.000000
0.000000 0.639903 0.000000
0.000000 0.639056 0.000000
0.013996 0.638175 0.000000
0.044235 0.637262 0.000000
0.075573 0.636315 0.000000
0.108011 0.635335 0.000000
0.141549 0.634322 0.000000
0.176186 0.633276 0.000000
0.211923 0.632196 0.000000
0.248759 0.631083 0.000000
0.286695 0.629937 0.000000
0.325731 0.628758 0.000000
0.365866 0.627545 0.000000
0.407101 0.626300 0.000000
0.449435 0.625021 0.000000
0.492869 0.623709 0.000000
0.536303 0.622397 0.000000
0.578637 0.621118 0.000000
0.619872 0.619872 0.000000
0.660007 0.618659 0.000000
0.699043 0.617480 0.000000
0.736979 0.616334 0.000000
0.773815 0.615221 0.000000
0.809847 0.614133 0.000000
0.844926 0.613073 0.000000
0.878891 0.612047 0.000000
0.911743 0.611055 0.000000
0.943481 0.610096 0.000000
0.974106 0.609171 0.000000
1.000000 0.608279 0.000000
1.000000 0.607421 0.000000
1.000000 0.606597 0.000000
0.000000 0.677986 0.000000
0.000000 0.677172 0.000000
0.000000 0.676325 0.000000
0.009917 0.675444 0.000000
0.040156 0.674531 0.000000
0.071494 0.673584 0.000000
0.103932 0.672604 0.000000
0.137470 0.671591 0.000000
0.172107 0.670544 0.000000
0.207844 0.669465 0.000000
0.244680 0.668352 0.000000
0.282616 0.667206 0.000000
0.321652 0.666027 0.000000
0.361787 0.664814 0.000000
0.403022 0.663569 0.000000
0.445356 0.662290 0.000000
0.488790 0.660977 0.000000
0.532224 0.659665 0.000000
0.574558 0.658386 0.000000
0.615793 0.657141 0.000000
0.656038 0.655925 0.000000
0.695571 0.654731 0.000000
0.733991 0.653570 0.000000
0.771297 0.652443 0.000000
0.807490 0.651350 0.000000
0.842569 0.650290 0.000000
0.876535 0.649264 0.000000
0.909386 0.648271 0.000000
0.941124 0.647312 0.000000
0.971749 0.646387 0.000000
1.000000 0.645496 0.000000
1.000000 0.644638 0.000000
1.000000 0.643814 0.000000
0.000000 0.714233 0.000000
0.000000 0.713419 0.000000
0.000000 0.712572 0.000000
0.005950 0.711692 0.000000
0.036189 0.710778 0.000000
0.067527 0.709832 0.000000
0.099965 0.708852 0.000000
0.133503 0.707839 0.000000
0.168140 0.706792 0.000000
0.203877 0.705713 0.000000
0.240713 0.704600 0.000000
0.278649 0.703454 0.000000
0.317685 0.702274 0.000000
0.357820 0.701062 0.000000
0.399055 0.699816 0.000000
0.441389 0.698537 0.000000
0.484823 0.697225 0.000000
0.528463 0.695907 0.000000
0.571338 0.694612 0.000000
0.613099 0.693350 0.000000
0.653746 0.692122 0.000000
0.693279 0.690928 0.000000
0.731699 0.689767 0.000000
0.769005 0.688640 0.000000
0.805198 0.687547 0.000000
0.840277 0.686487 0.000000
0.874242 0.685461 0.000000
0.907094 0.684468 0.000000
0.938832 0.683510 0.000000
0.969457 0.682584 0.000000
0.998968 0.681693 0.000000
1.000000 0.680835 0.000000
1.000000 0.680011 0.000000
0.000000 0.749460 0.000000
0.000000 0.748646 0.000000
0.000000 0.747799 0.000000
0.002094 0.746919 0.000000
0.032333 0.746005 0.000000
0.063672 0.745058 0.000000
0.096110 0.744078 0.000000
0.129647 0.743065 0.000000
0.164285 0.742019 0.000000
0.200021 0.740939 0.000000
0.236858 0.739826 0.000000
0.274794 0.738680 0.000000
0.313829 0.737501 0.000000
0.353964 0.736289 0.000000
0.395386 0.735037 0.000000
0.438260 0.733742 0.000000
0.482248 0.732413 0.000000
0.526236 0.731084 0.000000
0.569110 0.729789 0.000000
0.610871 0.728527 0.000000
0.651518 0.727300 0.000000
0.691052 0.726105 0.000000
0.729472 0.724945 0.000000
0.766778 0.723818 0.000000
0.802971 0.722724 0.000000
0.838050 0.721664 0.000000
0.872015 0.720638 0.000000
0.904867 0.719646 0.000000
0.936605 0.718687 0.000000
0.967230 0.717762 0.000000
0.996740 0.716870 0.000000
1.000000 0.716012 0.000000
1.000000 0.715188 0.000000
0.000000 0.783665 0.000000
0.000000 0.782852 0.000000
0.000000 0.782005 0.000000
0.000000 0.781124 0.000000
0.028590 0.780211 0.000000
0.059928 0.779264 0.000000
0.092366 0.778284 0.000000
0.125904 0.777271 0.000000
0.160541 0.776224 0.000000
0.196278 0.775145 0.000000
0.233114 0.774032 0.000000
0.271281 0.772879 0.000000
0.310815 0.771685 0.000000
0.351462 0.770457 0.000000
0.393223 0.769195 0.000000
0.436097 0.767900 0.000000
0.480085 0.766571 0.000000
0.524073 0.765242 0.000000
0.566947 0.763947 0.000000
0.608708 0.762685 0.000000
0.649355 0.761457 0.000000
0.688889 0.760263 0.000000
0.727309 0.759102 0.000000
0.764615 0.757975 0.000000
0.800808 0.756882 0.000000
0.835887 0.755822 0.000000
0.869852 0.754796 0.000000
0.902704 0.753804 0.000000
0.934442 0.752845 0.000000
0.965067 0.751920 0.000000
0.994578 0.751028 0.000000
1.000000 0.750170 0.000000
1.000000 0.749346 0.000000
0.000000 0.816850 0.000000
0.000000 0.816036 0.000000
0.000000 0.815189 0.000000
0.000000 0.814309 0.000000
0.024958 0.813395 0.000000
0.056296 0.812449 0.000000
0.088734 0.811469 0.000000
0.122272 0.810455 0.000000
0.157264 0.809398 0.000000
0.193457 0.808305 0.000000
0.230763 0.807178 0.000000
0.269183 0.806017 0.000000
0.308716 0.804823 0.000000
0.349364 0.803595 0.000000
0.391124 0.802333 0.000000
0.433999 0.801038 0.000000
0.477987 0.799709 0.000000
0.521975 0.798380 0.000000
0.564849 0.797085 0.000000
0.606610 0.795824 0.000000
0.647257 0.794596 0.000000
0.686790 0.793401 0.000000
0.725210 0.792241 0.000000
0.762517 0.791114 0.000000
0.798709 0.790020 0.000000
0.833788 0.788960 0.000000
0.867754 0.787934 0.000000
0.900606 0.786942 0.000000
0.932344 0.785983 0.000000
0.962968 0.785058 0.000000
0.992479 0.784166 0.000000
1.000000 0.783309 0.000000
1.000000 0.782484 0.000000
0.000000 0.849013 0.000000
0.000000 0.848200 0.000000
0.000000 0.847353 0.000000
0.000000 0.846472 0.000000
0.021596 0.845554 0.000000
0.053334 0.844595 0.000000
0.086186 0.843603 0.000000
0.120151 0.842577 0.000000
0.155230 0.841517 0.000000
0.191423 0.840423 0.000000
0.228729 0.839296 0.000000
0.267149 0.838136 0.000000
0.306683 0.836941 0.000000
0.347330 0.835714 0.000000
0.389091 0.834452 0.000000
0.431965 0.833157 0.000000
0.475953 0.831828 0.000000
0.519941 0.830499 0.000000
0.562815 0.829204 0.000000
0.604576 0.827942 0.000000
0.645223 0.826714 0.000000
0.684757 0.825520 0.000000
0.723177 0.824359 0.000000
0.760483 0.823232 0.000000
0.796676 0.822139 0.000000
0.831755 0.821079 0.000000
0.865720 0.820053 0.000000
0.898572 0.819060 0.000000
0.930310 0.818102 0.000000
0.960935 0.817176 0.000000
0.990445 0.816285 0.000000
1.000000 0.815427 0.000000
1.000000 0.814603 0.000000
0.000000 0.880152 0.000000
0.000000 0.879327 0.000000
0.000000 0.878470 0.000000
0.000000 0.877578 0.000000
0.019627 0.876653 0.000000
0.051365 0.875694 0.000000
0.084217 0.874702 0.000000
0.118182 0.873676 0.000000
0.153261 0.872616 0.000000
0.189454 0.871522 0.000000
0.226760 0.870395 0.000000
0.265180 0.869235 0.000000
0.304713 0.868040 0.000000
0.345361 0.866812 0.000000
0.387121 0.865551 0.000000
0.429996 0.864256 0.000000
0.473984 0.862927 0.000000
0.517972 0.861598 0.000000
0.560846 0.860303 0.000000
0.602607 0.859041 0.000000
0.643254 0.857813 0.000000
0.682788 0.856619 0.000000
0.721207 0.855458 0.000000
0.758514 0.854331 0.000000
0.794706 0.853238 0.000000
0.829785 0.852178 0.000000
0.863751 0.851152 0.000000
0.896603 0.850159 0.000000
0.928341 0.849201 0.000000
