assets/luts/tropical_punch.cube
TITLE "tropical_punch"
LUT_3D_SIZE 9
0.000000 0.000000 0.000000
0.114358 0.000000 0.000000
0.246309 0.000000 0.000000
0.395854 0.000000 0.000000
0.562992 0.000000 0.000000
0.730130 0.000000 0.000000
0.879675 0.000000 0.000000
1.000000 0.000000 0.000000
1.000000 0.000000 0.000000
0.000000 0.106190 0.000000
0.102736 0.102736 0.000000
0.234687 0.098750 0.000000
0.384232 0.094232 0.000000
0.551370 0.089183 0.000000
0.718508 0.084133 0.000000
0.868053 0.079616 0.000000
1.000000 0.075629 0.000000
1.000000 0.072175 0.000000
0.000000 0.228718 0.000000
0.089326 0.225263 0.000000
0.221277 0.221277 0.000000
0.370822 0.216759 0.000000
0.537960 0.211710 0.000000
0.705098 0.206661 0.000000
0.854643 0.202143 0.000000
0.986594 0.198157 0.000000
1.000000 0.194702 0.000000
0.000000 0.367582 0.000000
0.074128 0.364128 0.000000
0.206079 0.360142 0.000000
0.355624 0.355624 0.000000
0.522762 0.350575 0.000000
0.689900 0.345525 0.000000
0.839445 0.341008 0.000000
0.971396 0.337021 0.000000
1.000000 0.333566 0.000000
0.000000 0.522784 0.000000
0.057142 0.519329 0.000000
0.189093 0.515343 0.000000
0.338638 0.510825 0.000000
0.505776 0.505776 0.000000
0.672914 0.500727 0.000000
0.822459 0.496209 0.000000
0.954410 0.492223 0.000000
1.000000 0.488768 0.000000
0.000000 0.677986 0.000000
0.040156 0.674531 0.000000
0.172107 0.670544 0.000000
0.321652 0.666027 0.000000
0.488790 0.660977 0.000000
0.656038 0.655925 0.000000
0.807490 0.651350 0.000000
0.941124 0.647312 0.000000
1.000000 0.643814 0.000000
0.000000 0.816850 0.000000
0.024958 0.813395 0.000000
0.157264 0.809398 0.000000
0.308716 0.804823 0.000000
0.477987 0.799709 0.000000
0.647257 0.794596 0.000000
0.798709 0.790020 0.000000
0.932344 0.785983 0.000000
1.000000 0.782484 0.000000
0.000000 0.939291 0.000000
0.015882 0.935792 0.000000
0.149516 0.931755 0.000000
0.300969 0.927179 0.000000
0.470239 0.922066 0.000000
0.639509 0.916952 0.000000
0.790962 0.912377 0.000000
0.924596 0.908340 0.000000
1.000000 0.904841 0.000000
0.000000 1.000000 0.000000
0.009167 1.000000 0.000000
0.142802 1.000000 0.000000
0.294254 1.000000 0.000000
0.463524 1.000000 0.000000
0.632795 1.000000 0.000000
0.784247 1.000000 0.000000
0.917881 1.000000 0.000000
1.000000 1.000000 0.000000
0.000000 0.001942 0.123289
0.113184 0.000000 0.113184
0.245136 0.000000 0.109198
0.394680 0.000000 0.104680
0.561819 0.000000 0.099631
0.728957 0.000000 0.094582
0.878502 0.000000 0.090064
1.000000 0.000000 0.086078
1.000000 0.000000 0.082623
0.000000 0.105017 0.105017
0.101562 0.101562 0.101562
0.233514 0.097576 0.097576
0.383058 0.093059 0.093059
0.550197 0.088009 0.088009
0.717335 0.082960 0.082960
0.866880 0.078442 0.078442
0.998831 0.074456 0.074456
1.000000 0.071001 0.071001
0.000000 0.227545 0.091607
0.088153 0.224090 0.088153
0.220104 0.220104 0.084166
0.369648 0.215586 0.079649
0.536787 0.210537 0.074599
0.703925 0.205487 0.069550
0.853470 0.200970 0.065032
0.985421 0.196984 0.061046
1.000000 0.193529 0.057591
0.000000 0.366409 0.076409
0.072955 0.362954 0.072955
0.204906 0.358968 0.068968
0.354451 0.354451 0.064451
0.521589 0.349401 0.059401
0.688727 0.344352 0.054352
0.838272 0.339834 0.049834
0.970223 0.335848 0.045848
1.000000 0.332393 0.042393
0.000000 0.521611 0.059423
0.055969 0.518156 0.055969
0.187920 0.514170 0.051982
0.337465 0.509652 0.047465
0.504603 0.504603 0.042415
0.671741 0.499553 0.037366
0.821286 0.495036 0.032848
0.953237 0.491050 0.028862
1.000000 0.487595 0.025407
0.000000 0.676812 0.042437
0.038983 0.673358 0.038983
0.170934 0.669371 0.034996
0.320478 0.664853 0.030479
0.487617 0.659804 0.025429
0.655360 0.654737 0.020362
0.806812 0.650161 0.015786
0.940447 0.646124 0.011749
1.000000 0.642625 0.008250
0.000000 0.815677 0.027239
0.023785 0.812222 0.023785
0.156586 0.808210 0.019773
0.308039 0.803635 0.015197
0.477309 0.798521 0.010084
0.646579 0.793407 0.004970
0.798031 0.788832 0.000394
0.931666 0.784795 0.000000
1.000000 0.781296 0.000000
0.000000 0.938102 0.013727
0.015204 0.934604 0.010229
0.148839 0.930566 0.006191
0.300291 0.925991 0.001616
0.469561 0.920877 0.000000
0.638831 0.915764 0.000000
0.790284 0.911188 0.000000
0.923918 0.907151 0.000000
1.000000 0.903653 0.000000
0.000000 1.000000 0.001957
0.008489 1.000000 0.000000
0.142124 1.000000 0.000000
0.293576 1.000000 0.000000
0.462846 1.000000 0.000000
0.632117 1.000000 0.000000
0.783569 1.000000 0.000000
0.917204 1.000000 0.000000
1.000000 1.000000 0.000000
0.000000 0.004183 0.265545
0.111347 0.000000 0.255441
0.243782 0.000000 0.243782
0.393327 0.000000 0.239264
0.560465 0.000000 0.234215
0.727603 0.000000 0.229166
0.877148 0.000000 0.224648
1.000000 0.000000 0.220662
1.000000 0.000000 0.217207
0.000000 0.107258 0.247274
0.099725 0.103803 0.243819
0.232160 0.096223 0.232160
0.381705 0.091705 0.227642
0.548843 0.086656 0.222593
0.715981 0.081606 0.217544
0.865526 0.077089 0.213026
0.997477 0.073102 0.209040
1.000000 0.069648 0.205585
0.000000 0.226191 0.226191
0.086799 0.222736 0.222736
0.218750 0.218750 0.218750
0.368295 0.214232 0.214232
0.535433 0.209183 0.209183
0.702571 0.204134 0.204134
0.852116 0.199616 0.199616
0.984067 0.195630 0.195630
1.000000 0.192175 0.192175
0.000000 0.365055 0.210993
0.071601 0.361601 0.207538
0.203552 0.357615 0.203552
0.353097 0.353097 0.199034
0.520235 0.348048 0.193985
0.687373 0.342998 0.188936
0.836918 0.338481 0.184418
0.968869 0.334494 0.180432
1.000000 0.331040 0.176977
0.000000 0.520257 0.194007
0.054615 0.516802 0.190552
0.186566 0.512816 0.186566
0.336111 0.508298 0.182048
0.503249 0.503249 0.176999
0.670387 0.498200 0.171950
0.819932 0.493682 0.167432
0.951883 0.489696 0.163446
1.000000 0.486241 0.159991
0.000000 0.675458 0.177021
0.037629 0.672004 0.173566
0.169580 0.668017 0.169580
0.319125 0.663500 0.165062
0.486263 0.658451 0.160013
0.654578 0.653366 0.154928
0.806030 0.648790 0.150353
0.939664 0.644753 0.146316
1.000000 0.641254 0.142817
0.000000 0.814323 0.161823
0.022431 0.810868 0.158368
0.155804 0.806839 0.154339
0.307256 0.802264 0.149764
0.476527 0.797150 0.144650
0.645797 0.792036 0.139536
0.797249 0.787461 0.134961
0.930884 0.783424 0.130924
1.000000 0.779925 0.127425
0.000000 0.936731 0.148294
0.014422 0.933233 0.144795
0.148056 0.929195 0.140758
0.299509 0.924620 0.136183
0.468779 0.919506 0.131069
0.638049 0.914393 0.125955
0.789502 0.909817 0.121380
0.923136 0.905780 0.117343
1.000000 0.902281 0.113844
0.000000 1.000000 0.136524
0.007707 1.000000 0.133025
0.141342 1.000000 0.128988
0.292794 1.000000 0.124412
0.462064 1.000000 0.119299
0.631335 1.000000 0.114185
0.782787 1.000000 0.109610
0.916421 1.000000 0.105573
1.000000 1.000000 0.102074
0.000000 0.006723 0.426769
0.109265 0.000152 0.416665
0.241700 0.000000 0.405006
0.391792 0.000000 0.391792
0.558931 0.000000 0.386743
0.726069 0.000000 0.381694
0.875614 0.000000 0.377176
1.000000 0.000000 0.373190
1.000000 0.000000 0.369735
0.000000 0.109798 0.408498
0.097643 0.106343 0.405043
0.230078 0.098762 0.393384
0.380170 0.090171 0.380170
0.547309 0.085121 0.375121
0.714447 0.080072 0.370072
0.863992 0.075554 0.365554
0.995943 0.071568 0.361568
1.000000 0.068113 0.358113
0.000000 0.228731 0.387415
0.084717 0.225276 0.383960
0.216668 0.221290 0.379974
0.366760 0.212698 0.366760
0.533899 0.207649 0.361711
0.701037 0.202599 0.356662
0.850582 0.198082 0.352144
0.982533 0.194096 0.348158
1.000000 0.190641 0.344703
0.000000 0.363521 0.363521
0.070067 0.360067 0.360067
0.202018 0.356080 0.356080
0.351562 0.351562 0.351562
0.518701 0.346513 0.346513
0.685839 0.341464 0.341464
0.835384 0.336946 0.336946
0.967335 0.332960 0.332960
1.000000 0.329505 0.329505
0.000000 0.518723 0.346535
0.053081 0.515268 0.343081
0.185032 0.511282 0.339094
0.334576 0.506764 0.334576
0.501715 0.501715 0.329527
0.668853 0.496665 0.324478
0.818398 0.492148 0.319960
0.950349 0.488162 0.315974
1.000000 0.484707 0.312519
0.000000 0.673924 0.329549
0.036095 0.670470 0.326095
0.168046 0.666483 0.322108
0.317590 0.661965 0.317590
0.484729 0.656916 0.312541
0.653691 0.651812 0.307437
0.805144 0.647237 0.302862
0.938778 0.643199 0.298824
1.000000 0.639701 0.295326
0.000000 0.812789 0.314351
0.021283 0.809322 0.310885
0.154918 0.805285 0.306848
0.306370 0.800710 0.302272
0.475640 0.795596 0.297159
0.644911 0.790483 0.292045
0.796363 0.785907 0.287470
0.929997 0.781870 0.283433
1.000000 0.778371 0.279934
0.000000 0.935178 0.300803
0.013536 0.931679 0.297304
0.147170 0.927642 0.293267
0.298622 0.923066 0.288691
0.467893 0.917953 0.283578
0.637163 0.912839 0.278464
0.788615 0.908264 0.273889
0.922250 0.904226 0.269851
1.000000 0.900728 0.266353
0.000000 1.000000 0.289032
0.006821 1.000000 0.285534
0.140455 1.000000 0.281496
0.291908 1.000000 0.276921
0.461178 1.000000 0.271807
0.630448 1.000000 0.266694
0.781901 1.000000 0.262118
0.915535 1.000000 0.258081
1.000000 1.000000 0.254582
0.000000 0.009561 0.606961
0.106938 0.002991 0.596857
0.239373 0.000000 0.585198
0.389465 0.000000 0.571984
0.557216 0.000000 0.557216
0.724354 0.000000 0.552167
0.873899 0.000000 0.547649
1.000000 0.000000 0.543663
1.000000 0.000000 0.540208
0.000000 0.112636 0.588689
0.095316 0.109181 0.585235
0.227751 0.101601 0.573576
0.377843 0.093009 0.560362
0.545594 0.083407 0.545594
0.712732 0.078357 0.540545
0.862277 0.073840 0.536027
0.994228 0.069853 0.532041
1.000000 0.066399 0.528586
0.000000 0.231569 0.567607
0.082389 0.228114 0.564152
0.214341 0.224128 0.560166
0.364433 0.215536 0.546952
0.532184 0.205934 0.532184
0.699322 0.200885 0.527135
0.848867 0.196367 0.522617
0.980818 0.192381 0.518631
1.000000 0.188926 0.515176
0.000000 0.366360 0.543713
0.067739 0.362905 0.540258
0.199691 0.358919 0.536272
0.349235 0.354401 0.531754
0.516986 0.344799 0.516986
0.684124 0.339749 0.511937
0.833669 0.335232 0.507419
0.965620 0.331245 0.503433
1.000000 0.327790 0.499978
0.000000 0.517008 0.517008
0.051366 0.513553 0.513553
0.183317 0.509567 0.509567
0.332862 0.505049 0.505049
0.500000 0.500000 0.500000
0.667138 0.494951 0.494951
0.816683 0.490433 0.490433
0.948634 0.486447 0.486447
1.000000 0.482979 0.482979
0.000000 0.672210 0.500022
0.034380 0.668755 0.496567
0.166331 0.664768 0.492581
0.315876 0.660251 0.488063
0.483430 0.655189 0.483001
0.652701 0.650075 0.477888
0.804153 0.645500 0.473312
0.937787 0.641463 0.469275
1.000000 0.637964 0.465776
0.000000 0.811074 0.484824
0.020293 0.807586 0.481336
0.153927 0.803549 0.477299
0.305379 0.798973 0.472723
0.474650 0.793860 0.467610
0.643920 0.788746 0.462496
0.795372 0.784171 0.457921
0.929007 0.780133 0.453883
1.000000 0.776635 0.450385
0.000000 0.933441 0.471253
0.012545 0.929942 0.467755
0.146179 0.925905 0.463718
0.297632 0.921330 0.459142
0.466902 0.916216 0.454028
0.636172 0.911102 0.448915
0.787624 0.906527 0.444339
0.921259 0.902490 0.440302
1.000000 0.898991 0.436804
0.000000 1.000000 0.459483
0.005830 1.000000 0.455984
0.139465 1.000000 0.451947
0.290917 1.000000 0.447372
0.460187 1.000000 0.442258
0.629457 1.000000 0.437145
0.780910 1.000000 0.432569
0.914544 1.000000 0.428532
1.000000 1.000000 0.425033
0.000000 0.012399 0.787152
0.104611 0.005829 0.777048
0.237045 0.000000 0.765389
0.387138 0.000000 0.752176
0.554889 0.000000 0.737408
0.722639 0.000000 0.722639
0.872184 0.000000 0.718122
1.000000 0.000000 0.714136
1.000000 0.000000 0.710681
0.000000 0.115475 0.768881
0.092989 0.112020 0.765426
0.225423 0.104439 0.753767
0.375516 0.095847 0.740554
0.543267 0.086245 0.725786
0.711017 0.076643 0.711017
0.860562 0.072125 0.706500
0.992513 0.068139 0.702514
1.000000 0.064684 0.699059
0.000000 0.234407 0.747798
0.080062 0.230953 0.744343
0.212013 0.226966 0.740357
0.362106 0.218375 0.727144
0.529857 0.208772 0.712376
0.697607 0.199170 0.697607
0.847152 0.194652 0.693090
0.979104 0.190666 0.689103
1.000000 0.187211 0.685649
0.000000 0.369198 0.723904
0.065412 0.365743 0.720450
0.197363 0.361757 0.716463
0.346908 0.357239 0.711946
0.514659 0.347637 0.697178
0.682410 0.338035 0.682410
0.831954 0.333517 0.677892
0.963905 0.329531 0.673906
1.000000 0.326076 0.670451
0.000000 0.519846 0.697200
0.049039 0.516392 0.693745
0.180990 0.512405 0.689759
0.330535 0.507888 0.685241
0.497673 0.502838 0.680192
0.665423 0.493236 0.665423
0.814968 0.488718 0.660906
0.946919 0.484732 0.656919
1.000000 0.481243 0.653430
0.000000 0.670495 0.670495
0.032665 0.667040 0.667040
0.164616 0.663054 0.663054
0.314161 0.658536 0.658536
0.482440 0.653452 0.653452
0.651710 0.648339 0.648339
0.803162 0.643763 0.643763
0.936797 0.639726 0.639726
1.000000 0.636227 0.636227
0.000000 0.809348 0.655285
0.019302 0.805849 0.651787
0.152936 0.801812 0.647749
0.304389 0.797237 0.643174
0.473659 0.792123 0.638060
0.642929 0.787009 0.632947
0.794381 0.782434 0.628371
0.928016 0.778397 0.624334
1.000000 0.774898 0.620835
0.000000 0.931704 0.641704
0.011554 0.928206 0.638206
0.145189 0.924168 0.634168
0.296641 0.919593 0.629593
0.465911 0.914479 0.624479
0.635181 0.909366 0.619366
0.786634 0.904790 0.614790
0.920268 0.900753 0.610753
1.000000 0.897254 0.607254
0.000000 1.000000 0.629934
0.004839 1.000000 0.626435
0.138474 1.000000 0.622398
0.289926 1.000000 0.617823
0.459197 1.000000 0.612709
0.628467 1.000000 0.607595
0.779919 1.000000 0.603020
0.913554 1.000000 0.598983
1.000000 1.000000 0.595484
0.000000 0.014939 0.948376
0.102528 0.008369 0.938272
0.234963 0.000788 0.926613
0.385056 0.000000 0.913400
0.552807 0.000000 0.898632
0.720557 0.000000 0.883864
0.870650 0.000000 0.870650
1.000000 0.000000 0.866664
1.000000 0.000000 0.863209
0.000000 0.118014 0.930105
0.090906 0.114559 0.926650
0.223341 0.106979 0.914991
0.373434 0.098387 0.901778
0.541185 0.088785 0.887010
0.708935 0.079182 0.872242
0.859028 0.070591 0.859028
0.990979 0.066604 0.855042
1.000000 0.063150 0.851587
0.000000 0.236947 0.909022
0.077980 0.233492 0.905567
0.209931 0.229506 0.901581
0.360024 0.220914 0.888368
0.527775 0.211312 0.873600
0.695525 0.201710 0.858832
0.845618 0.193118 0.845618
0.977569 0.189132 0.841632
1.000000 0.185677 0.838177
0.000000 0.371738 0.885128
0.063330 0.368283 0.881674
0.195281 0.364297 0.877687
0.344826 0.359779 0.873170
0.512577 0.350177 0.858402
0.680327 0.340574 0.843634
0.830420 0.331983 0.830420
0.962371 0.327996 0.826434
1.000000 0.324542 0.822979
0.000000 0.522386 0.858424
0.046956 0.518931 0.854969
0.178908 0.514945 0.850983
0.328452 0.510427 0.846465
0.495591 0.505378 0.841416
0.663341 0.495776 0.826648
0.813434 0.487184 0.813434
0.945724 0.483188 0.809438
1.000000 0.479689 0.805939
0.000000 0.673034 0.831719
0.030583 0.669580 0.828264
0.162534 0.665593 0.824278
0.312079 0.661076 0.819760
0.481005 0.655972 0.814657
0.650275 0.650859 0.809543
0.802276 0.642209 0.796272
0.935910 0.638172 0.792235
1.000000 0.634674 0.788736
0.000000 0.807794 0.807794
0.018415 0.804295 0.804295
0.152050 0.800258 0.800258
0.303502 0.795683 0.795683
0.472772 0.790569 0.790569
0.642043 0.785455 0.785455
0.793495 0.780880 0.780880
0.927129 0.776843 0.776843
1.000000 0.773344 0.773344
0.000000 0.930151 0.794213
0.010668 0.926652 0.790714
0.144302 0.922615 0.786677
0.295754 0.918039 0.782102
0.465025 0.912926 0.776988
0.634295 0.907812 0.771874
0.785747 0.903237 0.767299
0.919382 0.899199 0.763262
1.000000 0.895701 0.759763
0.000000 1.000000 0.782443
0.003953 1.000000 0.778944
0.137587 1.000000 0.774907
0.289040 1.000000 0.770331
0.458310 1.000000 0.765218
0.627580 1.000000 0.760104
0.779033 1.000000 0.755529
0.912667 1.000000 0.751492
1.000000 1.000000 0.747993
0.000000 0.017180 1.000000
0.100691 0.010610 1.000000
0.233126 0.003029 1.000000
0.383219 0.000000 1.000000
0.550969 0.000000 1.000000
0.718720 0.000000 1.000000
0.868813 0.000000 1.000000
1.000000 0.000000 1.000000
1.000000 0.000000 0.997793
0.000000 0.120255 1.000000
0.089069 0.116800 1.000000
0.221504 0.109219 1.000000
0.371597 0.100628 1.000000
0.539347 0.091025 1.000000
0.707098 0.081423 1.000000
0.857191 0.072831 1.000000
0.989625 0.065251 0.989625
1.000000 0.061796 0.986171
0.000000 0.239188 1.000000
0.076143 0.235733 1.000000
0.208094 0.231747 1.000000
0.358187 0.223155 1.000000
0.525937 0.213553 1.000000
0.693688 0.203950 1.000000
0.843781 0.195359 0.987874
0.976216 0.187778 0.976216
1.000000 0.184323 0.972761
0.000000 0.373979 1.000000
0.061493 0.370524 1.000000
0.193444 0.366538 1.000000
0.342989 0.362020 1.000000
0.510739 0.352417 1.000000
0.678490 0.342815 0.985890
0.828583 0.334223 0.972676
0.961017 0.326643 0.961017
1.000000 0.323188 0.957563
0.000000 0.524627 1.000000
0.045119 0.521172 0.997225
0.177070 0.517186 0.993239
0.326615 0.512668 0.988721
0.493753 0.507619 0.983672
0.661504 0.498016 0.968904
0.811597 0.489425 0.955690
0.944942 0.481816 0.944004
1.000000 0.478318 0.940505
0.000000 0.675275 0.973975
0.028745 0.671820 0.970520
0.160697 0.667834 0.966534
0.310469 0.663310 0.962010
0.479740 0.658196 0.956896
0.649010 0.653082 0.951782
0.801010 0.644433 0.938511
0.935128 0.636801 0.926801
1.000000 0.633303 0.923303
0.000000 0.810018 0.950033
0.017150 0.806519 0.946534
0.150784 0.802482 0.942497
0.302237 0.797906 0.937922
0.471507 0.792793 0.932808
0.640777 0.787679 0.927695
0.792229 0.783104 0.923119
0.926347 0.775472 0.911409
1.000000 0.771973 0.907911
0.000000 0.928779 0.928779
0.009886 0.925281 0.925281
0.143520 0.921244 0.921244
0.294972 0.916668 0.916668
0.464243 0.911555 0.911555
0.633513 0.906441 0.906441
0.784965 0.901865 0.901865
0.918600 0.897828 0.897828
1.000000 0.894330 0.894330
0.000000 1.000000 0.917009
0.003171 1.000000 0.913510
0.136805 1.000000 0.909473
0.288258 1.000000 0.904898
0.457528 1.000000 0.899784
0.626798 1.000000 0.894671
0.778251 1.000000 0.890095
0.911885 1.000000 0.886058
1.000000 1.000000 0.882559
0.000000 0.019122 1.000000
0.099099 0.012552 1.000000
0.231534 0.004971 1.000000
0.381626 0.000000 1.000000
0.549377 0.000000 1.000000
0.717128 0.000000 1.000000
0.867220 0.000000 1.000000
0.999655 0.000000 1.000000
1.000000 0.000000 1.000000
0.000000 0.122197 1.000000
0.087477 0.118742 1.000000
0.219912 0.111162 1.000000
0.370004 0.102570 1.000000
0.537755 0.092967 1.000000
0.705506 0.083365 1.000000
0.855598 0.074773 1.000000
0.988033 0.067193 1.000000
1.000000 0.060623 1.000000
0.000000 0.241130 1.000000
0.074550 0.237675 1.000000
0.206502 0.233689 1.000000
0.356594 0.225097 1.000000
0.524345 0.215495 1.000000
0.692096 0.205893 1.000000
0.842188 0.197301 1.000000
0.974623 0.189720 1.000000
1.000000 0.183150 1.000000
0.000000 0.375921 1.000000
0.059900 0.372466 1.000000
0.191851 0.368480 1.000000
0.341396 0.363962 1.000000
0.509147 0.354359 1.000000
0.676898 0.344757 1.000000
0.826990 0.336165 1.000000
0.959425 0.328585 1.000000
1.000000 0.322014 1.000000
0.000000 0.526569 1.000000
0.043527 0.523114 1.000000
0.175478 0.519128 1.000000
0.325023 0.514610 1.000000
0.492161 0.509561 1.000000
0.659912 0.499959 1.000000
0.810004 0.491367 1.000000
0.943845 0.483744 1.000000
1.000000 0.477129 1.000000
0.000000 0.677217 1.000000
0.027153 0.673763 1.000000
0.159104 0.669776 1.000000
0.309372 0.665237 1.000000
0.478643 0.660123 1.000000
0.647913 0.655009 1.000000
0.799913 0.646360 1.000000
0.934031 0.638728 1.000000
1.000000 0.632114 1.000000
0.000000 0.811945 1.000000
0.016053 0.808446 1.000000
0.149687 0.804409 1.000000
0.301140 0.799833 1.000000
0.470410 0.794720 1.000000
0.639680 0.789606 1.000000
0.791133 0.785031 1.000000
0.925250 0.777399 1.000000
1.000000 0.770785 1.000000
0.000000 0.930707 1.000000
0.008789 0.927208 1.000000
0.142423 0.923171 1.000000
0.293875 0.918595 1.000000
0.463146 0.913482 1.000000
0.632416 0.908368 1.000000
0.783868 0.903793 1.000000
0.917503 0.899756 1.000000
1.000000 0.893141 1.000000
0.000000 1.000000 1.000000
0.002493 1.000000 1.000000
0.136127 1.000000 1.000000
0.287580 1.000000 1.000000
0.456850 1.000000 1.000000
0.626120 1.000000 1.000000
0.777573 1.000000 1.000000
0.911207 1.000000 1.000000
1.000000 0.999184 0.999184
